Assets/materials/shaders/textures/agx_saturate.cube
TITLE "Generated by Resolve"
LUT_3D_SIZE 5
0 0 0
0.00819409 0 0.00030518
0.842847 0.0647898 0
1 0.891218 0.88397
1 0.978119 0.971603
0.0299229 0.139178 0
0.162661 0.151949 0
0.853544 0.200565 0
1 0.887633 0.879713
1 0.977905 0.971313
0 0.703532 0.287495
0 0.703792 0.203006
0.688899 0.671534 0
1 0.871351 0.854871
1 0.975708 0.968414
0.780545 0.967056 0.760739
0.783352 0.966537 0.760571
0.805798 0.962463 0.76025
0.947478 0.940658 0.817761
1 0.967926 0.949569
0.954116 0.998566 0.9234
0.954192 0.99855 0.923415
0.954986 0.998398 0.923537
0.961944 0.997009 0.924926
0.995834 0.991653 0.939971
0 0 0
0.0910964 0 0.0921187
0.858869 0 0.192676
1 0.890074 0.882902
1 0.977981 0.971481
0 0.136751 0.139712
0.126726 0.126726 0.126726
0.87657 0.147204 0.142199
1 0.886305 0.878447
1 0.977752 0.971191
0 0.698222 0.309239
0 0.697978 0.238697
0.685008 0.66566 0
1 0.870298 0.853895
1 0.97557 0.968277
0.779904 0.966812 0.760784
0.782757 0.966278 0.760601
0.805203 0.962219 0.760281
0.947265 0.940368 0.817502
1 0.967803 0.949462
0.954086 0.998535 0.923537
0.954162 0.99852 0.923568
0.95494 0.998367 0.92369
0.961898 0.996994 0.925063
0.995804 0.991638 0.940032
0 0.243931 0.659754
0 0.269566 0.765148
0.814908 0.430335 0.830442
1 0.885801 0.882872
1 0.976898 0.970565
0 0.487068 0.833051
0 0.476387 0.85948
0.809628 0.446174 0.823499
1 0.882292 0.878752
1 0.976669 0.97026
0 0.70695 0.708522
0 0.701305 0.702647
0.65948 0.65948 0.65948
1 0.866285 0.854627
1 0.974548 0.967422
0.775158 0.96495 0.76759
0.778103 0.964385 0.767285
0.801328 0.96051 0.767224
0.945724 0.938506 0.818433
1 0.966934 0.948806
0.953811 0.998367 0.924697
0.953918 0.998352 0.924712
0.954665 0.998215 0.924834
0.961563 0.996826 0.926055
0.995651 0.991516 0.940612
0.893172 0.958694 1
0.895079 0.959396 1
0.903899 0.960266 1
0.994553 0.930495 0.999222
1 0.973587 0.974975
0.898787 0.961913 1
0.898665 0.961547 1
0.899672 0.958251 1
0.993545 0.92784 0.997986
1 0.973236 0.974578
0.860014 0.941787 1
0.859144 0.940887 1
0.860609 0.936034 1
0.987472 0.912871 0.990005
1 0.971084 0.971984
0.793301 0.955795 0.953811
0.795361 0.955352 0.953429
0.811475 0.952255 0.95079
0.934691 0.934691 0.934691
1 0.9635 0.955139
0.95169 0.997177 0.938552
0.951797 0.997162 0.938552
0.95256 0.996979 0.938537
0.959533 0.995697 0.938964
0.994308 0.990646 0.947875
1 1 1
1 1 1
1 1 1
1 1 1
1 0.987762 1
1 1 1
1 1 1
1 1 1
0.999908 1 1
1 0.987488 1
0.991913 1 1
0.991791 1 1
0.990982 1 1
0.99028 1 1
1 0.985656 1
0.947646 0.986969 1
0.947753 0.986893 1
0.94847 0.986206 1
0.961379 0.981476 1
1 0.975677 1
0.953414 0.995346 0.99498
0.953475 0.995346 0.99498
0.954086 0.995224 0.994873
0.959457 0.994278 0.994049
0.990112 0.990112 0.990112
