Assets/materials/shaders/textures/agx_saturate.cube
TITLE "Generated by Resolve"
LUT_3D_SIZE 9
0 0 0
0 0 0
0.00819409 0 0.00030518
0.267323 0.0114595 0
0.842847 0.0647898 0
1 0.69276 0.670314
1 0.891218 0.88397
1 0.957519 0.953094
1 0.978119 0.971603
0 0.033341 0.000137331
0.0658885 0.0603037 0
0.138079 0.080415 0
0.339284 0.105669 0
0.86041 0.134783 0
1 0.689494 0.6645
1 0.889784 0.882292
1 0.957198 0.952728
1 0.978073 0.971527
0.0299229 0.139178 0
0.107805 0.146151 0
0.162661 0.151949 0
0.355642 0.163958 0
0.853544 0.200565 0
1 0.685039 0.655268
1 0.887633 0.879713
1 0.956313 0.951812
1 0.977905 0.971313
0 0.33959 0.0805982
0 0.340414 0.00665293
0.125658 0.340612 0
0.351324 0.340368 0
0.803006 0.367987 0
1 0.675746 0.623468
1 0.882063 0.872648
1 0.954406 0.949722
1 0.977218 0.970474
0 0.703532 0.287495
0 0.703395 0.261952
0 0.703792 0.203006
0.298848 0.696971 0
0.688899 0.671534 0
0.963424 0.712306 0.561502
1 0.871351 0.854871
1 0.948608 0.942931
1 0.975708 0.968414
0.455726 0.902937 0.431159
0.466239 0.902037 0.431342
0.482261 0.900649 0.431769
0.528115 0.896132 0.433112
0.654368 0.882551 0.453193
0.867262 0.85594 0.584466
1 0.877134 0.81706
1 0.93962 0.927138
1 0.971939 0.962493
0.780545 0.967056 0.760739
0.78172 0.966842 0.760678
0.783352 0.966537 0.760571
0.788739 0.965515 0.76025
0.805798 0.962463 0.76025
0.856809 0.954055 0.7682
0.947478 0.940658 0.817761
1 0.946136 0.902144
1 0.967926 0.949569
0.902525 0.989197 0.872114
0.902739 0.989166 0.872129
0.903014 0.989105 0.872145
0.904036 0.988907 0.872206
0.90724 0.98822 0.872358
0.916701 0.986252 0.87332
0.941238 0.981704 0.879423
0.981018 0.975677 0.901656
1 0.976013 0.936065
0.954116 0.998566 0.9234
0.954147 0.99855 0.9234
0.954192 0.99855 0.923415
0.954376 0.99852 0.923445
0.954986 0.998398 0.923537
0.956786 0.998032 0.923858
0.961944 0.997009 0.924926
0.97435 0.994751 0.92874
0.995834 0.991653 0.939971
0 0 0
0 0 0
0.0443885 0 0.0180209
0.278782 0 0.080293
0.852445 0 0.122744
1 0.693904 0.673396
1 0.89073 0.883497
1 0.957397 0.952972
1 0.978058 0.971557
0 0.0362707 0.0375372
0.0147097 0.0147097 0.0147097
0.138338 0.0132448 0.00547799
0.364538 0 0.0071107
0.883436 0.00843824 0.0530404
1 0.690547 0.667491
1 0.88922 0.881727
1 0.956985 0.952544
1 0.978012 0.971481
0 0.125704 0.0713054
0.0102693 0.122072 0
0.129732 0.122164 0
0.371267 0.112749 0
0.876753 0.141848 0.0200046
1 0.684367 0.656428
1 0.887129 0.879225
1 0.956176 0.951675
1 0.977844 0.971267
0 0.333989 0.145693
0 0.335027 0.120287
0.00683604 0.336004 0
0.343145 0.331853 0
0.810987 0.355688 0
1 0.673884 0.623407
1 0.881651 0.872267
1 0.954284 0.949599
1 0.977157 0.970413
0 0.701686 0.297414
0 0.701396 0.273289
0 0.700893 0.219898
0.285435 0.695048 0
0.687831 0.669215 0
0.963104 0.710185 0.560815
1 0.870924 0.854459
1 0.948501 0.942824
1 0.975647 0.968353
0.453498 0.902419 0.432761
0.464134 0.901534 0.432975
0.479896 0.90016 0.433249
0.526406 0.895659 0.434669
0.652796 0.88188 0.453544
0.866835 0.855436 0.58439
1 0.876677 0.816541
1 0.939498 0.927016
1 0.971893 0.962448
0.780255 0.966949 0.760723
0.78143 0.966735 0.760662
0.783078 0.96643 0.76054
0.788479 0.965408 0.76022
0.805524 0.962356 0.760235
0.856611 0.953948 0.768109
0.947402 0.940551 0.817655
1 0.946044 0.902052
1 0.96788 0.949523
0.902434 0.989181 0.87216
0.902647 0.989136 0.87216
0.902937 0.989075 0.87219
0.903944 0.988876 0.872251
0.907179 0.988174 0.872404
0.91664 0.986221 0.87335
0.941207 0.981674 0.879454
0.980987 0.975631 0.901656
1 0.975998 0.936065
0.954101 0.99855 0.923461
0.954131 0.99855 0.923461
0.954192 0.998535 0.923476
0.95436 0.998505 0.923506
0.954971 0.998383 0.923598
0.956771 0.998016 0.923919
0.961929 0.997009 0.924971
0.974334 0.994751 0.928786
0.995819 0.991653 0.940002
0 0 0
0.000839246 0 0.00474556
0.0910964 0 0.0921187
0.295644 0 0.148608
0.858869 0 0.192676
1 0.694224 0.676127
1 0.890074 0.882902
1 0.957214 0.952804
1 0.977981 0.971481
0 0.0636454 0.111498
0.010956 0.0311437 0.149172
0.135866 0.0300908 0.147448
0.372503 0 0.133074
0.884733 0.0426795 0.16556
1 0.689387 0.668635
1 0.888533 0.881086
1 0.956725 0.952285
1 0.97792 0.971405
0 0.136751 0.139712
0 0.129793 0.132982
0.126726 0.126726 0.126726
0.388418 0.0923018 0.0975509
0.87657 0.147204 0.142199
1 0.683604 0.658106
1 0.886305 0.878447
1 0.955993 0.951507
1 0.977752 0.971191
0 0.336477 0.179599
0 0.33547 0.160739
0 0.336294 0.0959335
0.342 0.32871 0
0.820081 0.341787 0
1 0.672084 0.624155
1 0.880995 0.871656
1 0.954101 0.949432
1 0.977066 0.970336
0 0.698222 0.309239
0 0.69781 0.287007
0 0.697978 0.238697
0.267842 0.693278 0
0.685008 0.66566 0
0.962615 0.707958 0.560845
1 0.870298 0.853895
1 0.948302 0.942641
1 0.97557 0.968277
0.450538 0.901747 0.436973
0.460487 0.900801 0.436622
0.4757 0.899275 0.436133
0.523812 0.894957 0.438499
0.651011 0.881117 0.456352
0.86627 0.854749 0.584878
1 0.876112 0.815946
1 0.939345 0.926863
1 0.971801 0.962371
0.779904 0.966812 0.760784
0.781079 0.966598 0.760723
0.782757 0.966278 0.760601
0.788144 0.96527 0.760281
0.805203 0.962219 0.760281
0.856306 0.953735 0.767941
0.947265 0.940368 0.817502
1 0.945922 0.90193
1 0.967803 0.949462
0.902296 0.98912 0.872221
0.902525 0.98909 0.872236
0.902831 0.989029 0.872251
0.903838 0.988815 0.872312
0.907073 0.988128 0.872465
0.916533 0.986175 0.873411
0.941161 0.981613 0.879499
0.980941 0.975586 0.901656
1 0.975952 0.936065
0.954086 0.998535 0.923537
0.954116 0.998535 0.923552
0.954162 0.99852 0.923568
0.95433 0.998489 0.923583
0.95494 0.998367 0.92369
0.956756 0.998001 0.92401
0.961898 0.996994 0.925063
0.974334 0.994751 0.928832
0.995804 0.991638 0.940032
0 0.0391699 0.204227
0.0533608 0.0275883 0.248478
0.128527 0.0382239 0.311757
0.329793 0.00125124 0.381598
0.866636 0.0515908 0.442115
1 0.692607 0.691005
1 0.888258 0.881437
1 0.956573 0.952224
1 0.977722 0.971252
0 0.147372 0.358053
0 0.132311 0.414343
0.0847181 0.110109 0.449775
0.377356 0.0768292 0.444404
0.875639 0.13608 0.438376
1 0.687617 0.683085
1 0.886946 0.879896
1 0.956191 0.951797
1 0.977676 0.971191
0 0.202762 0.408164
0 0.193179 0.42533
0.0632181 0.172061 0.449607
0.380041 0.145708 0.426734
0.866316 0.186816 0.410544
1 0.680568 0.671229
1 0.884672 0.877195
1 0.955459 0.951034
1 0.977462 0.970916
0 0.355871 0.367422
0 0.353826 0.363836
0 0.349187 0.356909
0.335485 0.335485 0.335485
0.813703 0.342779 0.320607
1 0.666499 0.634974
1 0.879194 0.870253
1 0.953429 0.948821
1 0.976791 0.970092
0 0.693904 0.385733
0 0.693294 0.371023
0 0.692058 0.341146
0.148455 0.693858 0.135607
0.678401 0.658854 0.19202
0.960967 0.703319 0.573098
1 0.868879 0.852979
1 0.947845 0.942199
1 0.975311 0.968048
0.441871 0.89955 0.461051
0.452918 0.898665 0.461006
0.469108 0.897383 0.46128
0.517525 0.892958 0.461906
0.646494 0.87921 0.475288
0.864393 0.852659 0.589868
1 0.875059 0.815427
1 0.938872 0.926421
1 0.971542 0.962142
0.778729 0.966354 0.761349
0.779904 0.96614 0.761288
0.781628 0.965789 0.76109
0.786557 0.964752 0.760464
0.804105 0.961776 0.760815
0.855451 0.953201 0.768063
0.946975 0.939895 0.817365
1 0.945495 0.901518
1 0.96759 0.949279
0.901991 0.988983 0.872465
0.90222 0.988937 0.872465
0.902556 0.988876 0.87248
0.903548 0.988663 0.872541
0.906813 0.987976 0.872709
0.916274 0.986023 0.873625
0.940932 0.981445 0.879652
0.980804 0.975433 0.901686
1 0.975845 0.936034
0.954025 0.998489 0.923812
0.954055 0.998489 0.923827
0.954101 0.998474 0.923827
0.954269 0.998444 0.923858
0.954864 0.998322 0.923964
0.95668 0.997971 0.924269
0.961822 0.996948 0.925292
0.974273 0.994705 0.92903
0.995773 0.991608 0.940169
0 0.243931 0.659754
0 0.26305 0.712764
0 0.269566 0.765148
0.334951 0.308782 0.81149
0.814908 0.430335 0.830442
1 0.704509 0.796017
1 0.885801 0.882872
1 0.955505 0.951446
1 0.976898 0.970565
0 0.418555 0.800061
0 0.42826 0.819257
0 0.42797 0.845396
0.362768 0.421881 0.867109
0.816617 0.445594 0.832303
1 0.699016 0.789044
1 0.884382 0.881239
1 0.954986 0.950896
1 0.976852 0.970489
0 0.487068 0.833051
0 0.485008 0.841901
0 0.476387 0.85948
0.360342 0.451499 0.871015
0.809628 0.446174 0.823499
1 0.689921 0.777966
1 0.882292 0.878752
1 0.954314 0.950179
1 0.976669 0.97026
0 0.529931 0.799863
0 0.524269 0.803494
0 0.515267 0.813764
0.301915 0.485267 0.829999
0.768917 0.465599 0.778561
0.991287 0.672068 0.745769
1 0.877073 0.87219
1 0.952148 0.947845
1 0.976089 0.969512
0 0.70695 0.708522
0 0.70486 0.706325
0 0.701305 0.702647
0.180407 0.69192 0.69308
0.65948 0.65948 0.65948
0.952621 0.701488 0.682063
1 0.866285 0.854627
1 0.946609 0.941192
1 0.974548 0.967422
0.431434 0.894621 0.599313
0.442054 0.893782 0.598566
0.458351 0.892302 0.597147
0.508217 0.887892 0.594171
0.639536 0.874418 0.591531
0.860151 0.849042 0.641581
0.999908 0.872877 0.817731
1 0.937621 0.925429
1 0.970825 0.961578
0.775158 0.96495 0.76759
0.776318 0.964736 0.767468
0.778103 0.964385 0.767285
0.783368 0.963485 0.767102
0.801328 0.96051 0.767224
0.853071 0.951934 0.773144
0.945724 0.938506 0.818433
1 0.944457 0.900786
1 0.966934 0.948806
0.901091 0.98851 0.873793
0.90132 0.988464 0.873793
0.901656 0.988403 0.873808
0.902678 0.98819 0.873869
0.905943 0.987503 0.874006
0.915404 0.985565 0.874815
0.940154 0.980987 0.88043
0.980392 0.975021 0.902022
1 0.975555 0.93608
0.953811 0.998367 0.924697
0.953857 0.998367 0.924697
0.953918 0.998352 0.924712
0.954086 0.998322 0.924727
0.954665 0.998215 0.924834
0.956481 0.997848 0.925124
0.961563 0.996826 0.926055
0.974105 0.994583 0.929747
0.995651 0.991516 0.940612
0.443717 0.741512 0.973251
0.477989 0.752285 0.975402
0.523247 0.767056 0.978271
0.621927 0.795956 0.983124
0.770214 0.814969 0.981994
0.946303 0.812757 0.95729
1 0.887327 0.920256
1 0.95314 0.952193
1 0.975418 0.96994
0.602396 0.817746 0.989609
0.61178 0.819669 0.989853
0.624979 0.821775 0.990036
0.662623 0.824399 0.989502
0.76994 0.819043 0.983078
0.944549 0.807965 0.955352
1 0.885725 0.918746
1 0.952605 0.951659
1 0.975311 0.969818
0.639719 0.835584 0.993194
0.644266 0.835859 0.993118
0.649088 0.834821 0.99266
0.671 0.831449 0.990921
0.762905 0.817151 0.982528
0.941695 0.800504 0.952209
1 0.88368 0.916762
1 0.951888 0.950912
1 0.975097 0.969558
0.619501 0.828977 0.990173
0.621225 0.827787 0.989761
0.623529 0.825345 0.988968
0.641749 0.818601 0.986343
0.735973 0.798337 0.975937
0.933547 0.780713 0.942214
1 0.878416 0.911284
1 0.949645 0.948577
1 0.974533 0.968841
0.509834 0.808499 0.967742
0.514946 0.806897 0.967056
0.524834 0.804868 0.96611
0.558938 0.797467 0.962341
0.681224 0.778119 0.950011
0.911696 0.765377 0.915831
1 0.866911 0.895979
1 0.944533 0.942428
1 0.972915 0.966705
0.505837 0.885924 0.883696
0.512673 0.885206 0.88304
0.522576 0.884123 0.882017
0.555077 0.880476 0.87866
0.653117 0.869612 0.868986
0.847822 0.847822 0.847822
0.994827 0.870695 0.860746
1 0.935164 0.926863
1 0.969207 0.960952
0.769268 0.961288 0.825513
0.770504 0.961074 0.825345
0.772229 0.9608 0.825177
0.777798 0.959869 0.824537
0.795575 0.956847 0.822675
0.84802 0.948577 0.821195
0.942092 0.935714 0.841367
1 0.942382 0.903365
1 0.965454 0.948547
0.898741 0.987243 0.88217
0.898939 0.987198 0.88217
0.89929 0.987137 0.882185
0.900374 0.986908 0.882185
0.903578 0.986267 0.882231
0.913268 0.984405 0.88278
0.938277 0.979828 0.886854
0.979217 0.973968 0.905226
1 0.974731 0.936904
0.953201 0.998016 0.927825
0.953231 0.998016 0.927825
0.953292 0.998001 0.927825
0.95349 0.997955 0.927855
0.954055 0.997848 0.927932
0.955856 0.997497 0.92813
0.960952 0.996475 0.928908
0.973587 0.994278 0.932128
0.99527 0.991257 0.942123
0.893172 0.958694 1
0.893706 0.958846 1
0.895079 0.959396 1
0.897993 0.960204 1
0.903899 0.960266 1
0.923156 0.950545 1
0.994553 0.930495 0.999222
1 0.953872 0.977447
1 0.973587 0.974975
0.897826 0.961318 1
0.898268 0.961425 1
0.898421 0.961318 1
0.899763 0.961349 1
0.902861 0.959884 1
0.920974 0.948959 1
0.994034 0.929198 0.998642
1 0.953384 0.977035
1 0.973449 0.974807
0.898787 0.961913 1
0.898817 0.961822 1
0.898665 0.961547 1
0.898497 0.960784 1
0.899672 0.958251 1
0.917525 0.946395 1
0.993545 0.92784 0.997986
1 0.952804 0.976593
1 0.973236 0.974578
0.889998 0.95729 1
0.889906 0.957122 1
0.889738 0.956832 1
0.888624 0.95552 1
0.88838 0.951965 1
0.90808 0.939055 1
0.991913 0.923659 0.995956
1 0.950851 0.974868
1 0.972671 0.973907
0.860014 0.941787 1
0.859602 0.941405 1
0.859144 0.940887 1
0.859144 0.939895 1
0.860609 0.936034 1
0.890929 0.923598 1
0.987472 0.912871 0.990005
1 0.945785 0.970199
1 0.971084 0.971984
0.797909 0.92253 1
0.798306 0.922332 1
0.798932 0.921965 1
0.801266 0.920913 1
0.810864 0.916899 1
0.862181 0.905547 0.992264
0.972442 0.898634 0.972183
1 0.935882 0.957763
1 0.967254 0.966628
0.793301 0.955795 0.953811
0.794141 0.955627 0.953674
0.795361 0.955352 0.953429
0.798932 0.954665 0.952819
0.811475 0.952255 0.95079
0.851942 0.945556 0.944991
0.934691 0.934691 0.934691
1 0.940993 0.935866
1 0.9635 0.955139
0.89575 0.98468 0.922469
0.895979 0.984634 0.922438
0.896315 0.984573 0.922408
0.897307 0.984375 0.922301
0.900298 0.983841 0.921981
0.909758 0.982025 0.92108
0.934691 0.977737 0.920378
0.976165 0.972091 0.92575
1 0.973449 0.944472
0.95169 0.997177 0.938552
0.951736 0.997162 0.938552
0.951797 0.997162 0.938552
0.95198 0.997116 0.938537
0.95256 0.996979 0.938537
0.95436 0.996628 0.938582
0.959533 0.995697 0.938964
0.972229 0.993515 0.94078
0.994308 0.990646 0.947875
0.973526 1 1
0.973434 1 1
0.973297 1 1
0.972641 1 1
0.971298 1 1
0.968902 0.997238 1
0.982452 0.986496 1
1 0.974121 1
1 0.975921 0.998703
0.972457 1 1
0.972335 1 1
0.972183 1 1
0.971618 1 1
0.970031 1 1
0.967727 0.996506 1
0.98201 0.986068 1
1 0.973556 1
1 0.975799 0.998596
0.970748 1 1
0.970672 1 1
0.970504 1 1
0.970108 1 1
0.968444 1 1
0.966354 0.995651 1
0.981399 0.985519 1
1 0.972961 1
1 0.975586 0.998413
0.965942 0.999268 1
0.965789 0.999146 1
0.965606 0.999008 1
0.965133 0.998581 1
0.963745 0.997208 1
0.962844 0.993408 1
0.979202 0.983398 1
1 0.97145 1
1 0.975006 0.997925
0.955154 0.992935 1
0.955032 0.992828 1
0.95491 0.992721 1
0.954513 0.992325 1
0.953414 0.991012 1
0.953445 0.987305 1
0.973022 0.97734 1
1 0.966949 1
1 0.973404 0.996429
0.928359 0.978058 1
0.928252 0.977935 1
0.9281 0.977768 1
0.927764 0.977279 1
0.927825 0.97615 1
0.930678 0.972213 1
0.958648 0.962325 1
1 0.957153 1
1 0.969573 0.992355
0.886015 0.965667 1
0.886168 0.965606 1
0.886412 0.965499 1
0.887205 0.965133 1
0.889998 0.964065 1
0.901091 0.960876 1
0.938369 0.953887 1
0.993927 0.951736 0.991943
1 0.965087 0.982925
0.90428 0.982559 0.981353
0.904448 0.982528 0.981323
0.904707 0.982467 0.981277
0.905501 0.982315 0.981155
0.907835 0.981857 0.980819
0.914885 0.980392 0.979568
0.935256 0.976822 0.976562
0.971954 0.971954 0.971954
1 0.973053 0.97055
0.95024 0.995911 0.964263
0.950271 0.995911 0.964263
0.950332 0.995895 0.964263
0.950515 0.995865 0.964248
0.951095 0.995758 0.964187
0.952712 0.995468 0.964065
0.957671 0.994583 0.963638
0.970153 0.992569 0.96318
0.99234 0.989837 0.964401
1 1 1
1 1 1
1 1 1
1 1 1
1 1 1
1 1 1
1 1 1
1 0.998383 1
1 0.987762 1
1 1 1
1 1 1
1 1 1
1 1 1
1 1 1
1 1 1
1 1 1
1 0.998108 1
1 0.987655 1
1 1 1
1 1 1
1 1 1
1 1 1
1 1 1
1 1 1
0.999908 1 1
1 0.997726 1
1 0.987488 1
1 1 1
1 1 1
1 1 1
1 1 1
0.99942 1 1
0.997986 1 1
0.997406 1 1
1 0.996689 1
1 0.986938 1
0.991913 1 1
0.991867 1 1
0.991791 1 1
0.991577 1 1
0.990982 1 1
0.989761 1 1
0.99028 1 1
1 0.993194 1
1 0.985656 1
0.971954 1 1
0.971954 1 1
0.971954 1 1
0.971954 1 1
0.971954 1 1
0.972534 0.998688 1
0.978515 0.994385 1
0.999924 0.986038 1
1 0.981826 1
0.947646 0.986969 1
0.947692 0.986938 1
0.947753 0.986893 1
0.947951 0.986755 1
0.94847 0.986206 1
0.951156 0.985016 1
0.961379 0.981476 1
0.988159 0.976059 1
1 0.975677 1
0.934112 0.985428 1
0.934157 0.985412 1
0.934249 0.985397 1
0.934524 0.985321 1
0.935607 0.985016 1
0.93904 0.984207 1
0.949294 0.98201 1
0.972717 0.978439 1
1 0.977523 1
0.953414 0.995346 0.99498
0.953445 0.995346 0.99498
0.953475 0.995346 0.99498
0.953628 0.995315 0.994949
0.954086 0.995224 0.994873
0.955474 0.99498 0.994675
0.959457 0.994278 0.994049
0.970062 0.992554 0.992538
0.990112 0.990112 0.990112
