Assets/materials/shaders/textures/agx_saturate.cube
TITLE "Generated by Resolve"
LUT_3D_SIZE 65
0 0 0
0 0 0
0 0 0
0 0 0
0 0 0
0 0 0
0 0 0
0 0 0
0 0 0
0 0 0
0 0 0
0 0 0
0 0 0
0 0 0
0 0 0
0 0 0
0.00819409 0 0.00030518
0.0326543 0 3.0518e-05
0.0644388 0.000762951 0
0.0932326 0.00192264 0
0.123262 0.00347906 0
0.154345 0.0053254 0
0.187671 0.00741588 0
0.226947 0.00920119 0
0.267323 0.0114595 0
0.316487 0.0115969 0
0.372671 0.0107729 0
0.4374 0.00846876 0
0.514397 0.00180056 0
0.597833 0 0.00360113
0.685618 7.62951e-05 0
0.767865 0.0189059 0
0.842847 0.0647898 0
0.903441 0.158404 0.0943008
0.940932 0.269657 0.21117
0.967941 0.368505 0.312215
0.986297 0.451682 0.403998
0.999496 0.526299 0.487175
1 0.590631 0.558541
1 0.646754 0.620172
1 0.69276 0.670314
1 0.733562 0.714641
1 0.768261 0.752178
1 0.797345 0.783551
1 0.822217 0.810285
1 0.844007 0.833661
1 0.861753 0.852598
1 0.878019 0.869963
1 0.891218 0.88397
1 0.903426 0.896925
1 0.914427 0.908553
1 0.924285 0.918959
1 0.932616 0.927703
1 0.940108 0.935576
1 0.946319 0.942031
1 0.952316 0.948058
1 0.957519 0.953094
1 0.961883 0.957275
1 0.965667 0.960861
1 0.968658 0.963638
1 0.971115 0.965866
1 0.973327 0.967834
1 0.975143 0.969345
1 0.976684 0.97055
1 0.978119 0.971603
0 0 0
0 0 0
0 0 0
0 0 0
0 0 0
0 0 0
0 0 0
0 0 0
0 0 0
0 0 0
0 0 0
0 0 0
0 0 0
0 0 0
0.00639353 0 0.000122072
0.023621 0.00077821 0
0.0464332 0.00218204 0
0.0688029 0.00386053 0
0.0924849 0.00602731 0
0.116991 0.00856031 0
0.142473 0.0113375 0
0.171649 0.0143893 0
0.204715 0.0173648 0
0.240574 0.0204166 0
0.282017 0.0239261 0
0.330068 0.0257877 0
0.386648 0.0267491 0
0.453269 0.0246738 0
0.529335 0.0215763 0
0.61474 0.0175784 0
0.696025 0.0190738 0
0.774197 0.0384527 0
0.84715 0.0768749 0
0.904524 0.166339 0.0982681
0.941299 0.274342 0.213123
0.967727 0.370291 0.312367
0.985901 0.451759 0.402945
0.999146 0.525872 0.485939
1 0.589471 0.556756
1 0.64625 0.619257
1 0.692836 0.670146
1 0.733089 0.713939
1 0.767346 0.751064
1 0.797116 0.783215
1 0.821668 0.809628
1 0.843717 0.83331
1 0.861372 0.852155
1 0.877592 0.869474
1 0.891035 0.883757
1 0.903273 0.896742
1 0.914321 0.908431
1 0.924193 0.918837
1 0.932525 0.927596
1 0.940032 0.935485
1 0.946303 0.942016
1 0.952239 0.947982
1 0.957504 0.953063
1 0.961837 0.957214
1 0.965652 0.960845
1 0.968612 0.963607
1 0.971099 0.96585
1 0.973312 0.967803
1 0.975143 0.969329
1 0.976669 0.97052
1 0.978119 0.971603
0 0 0
0 0 0
0 0 0
0 0 0
0 0 0
0 0 0
0 0 0
0 0 0
0 0 0
0 0 0
0 0 0
0 0 0
0.00561532 0.000183108 0
0.0216831 0.00204471 0
0.0396277 0.0040589 0
0.0564126 0.00602731 0
0.0744335 0.00849927 0
0.0928817 0.0112764 0
0.112688 0.014313 0
0.134157 0.0170291 0
0.158694 0.021088 0
0.186053 0.0254215 0
0.216663 0.0298619 0
0.253788 0.034165 0
0.294636 0.0385595 0
0.343771 0.0422522 0
0.4009 0.0435187 0
0.467338 0.0438849 0
0.543877 0.0419776 0
0.623255 0.0370642 0
0.702556 0.0370489 0
0.778714 0.0536965 0
0.850492 0.0877852 0
0.906416 0.176257 0.104845
0.942412 0.280888 0.217456
0.968002 0.373953 0.314626
0.986023 0.454414 0.404791
0.9991 0.527352 0.486854
1 0.589944 0.556725
1 0.64535 0.617884
1 0.692622 0.669642
1 0.733013 0.71368
1 0.76672 0.750256
1 0.796918 0.78291
1 0.821317 0.809201
1 0.843107 0.832593
1 0.861051 0.851789
1 0.877272 0.869108
1 0.890867 0.883558
1 0.903105 0.896559
1 0.914244 0.908339
1 0.924086 0.91873
1 0.932479 0.92755
1 0.939956 0.935393
1 0.946288 0.941985
1 0.952163 0.947906
1 0.957488 0.953048
1 0.961791 0.957168
1 0.965637 0.960815
1 0.968582 0.963561
1 0.971084 0.965835
1 0.973281 0.967773
1 0.975128 0.969314
1 0.976654 0.970504
1 0.978103 0.971588
0 0 0
0 0 0
0 0 0
0 0 0
0 0 0
0 0 0
0 0 0
0 0 0
0 0 0
0.00164797 9.15541e-05 0
0.00872816 0.0016022 0
0.0197452 0.00395209 0
0.0340581 0.00633249 0
0.0501717 0.00875868 0
0.0641031 0.011368 0
0.0780194 0.0141451 0
0.0929427 0.0173648 0
0.108782 0.0206912 0
0.127169 0.0247044 0
0.147768 0.0288243 0
0.170626 0.0333867 0
0.196902 0.0387884 0
0.228367 0.0442359 0
0.2636 0.0492714 0
0.306294 0.0534371 0
0.355505 0.0571908 0
0.413016 0.0601968 0
0.480613 0.0610819 0
0.552819 0.0583963 0
0.632288 0.0511482 0
0.707988 0.0515755 0
0.782757 0.0657664 0
0.853544 0.0968643 0
0.907362 0.183474 0.108324
0.942641 0.284932 0.218982
0.967865 0.375708 0.314992
0.98587 0.45568 0.405112
0.998901 0.527977 0.486748
1 0.590768 0.557153
1 0.64477 0.616876
1 0.69163 0.668299
1 0.732921 0.713405
1 0.766217 0.749554
1 0.796262 0.782101
1 0.820966 0.808743
1 0.842573 0.831968
1 0.860945 0.851637
1 0.877043 0.868833
1 0.890852 0.883528
1 0.902953 0.896361
1 0.914244 0.908324
1 0.92398 0.918608
1 0.932464 0.927535
1 0.939879 0.935302
1 0.946227 0.941939
1 0.952102 0.947829
1 0.957473 0.953017
1 0.96173 0.957107
1 0.965606 0.9608
1 0.968551 0.963516
1 0.971069 0.96582
1 0.973251 0.967727
1 0.975113 0.969299
1 0.976623 0.970489
1 0.978103 0.971588
0 0 0
0 0 0
0 0 0
0 0 0
0 0 0
0 0 0
0.000991836 0.000335698 0
0.00622568 0.00256352 0
0.0131838 0.00515755 0
0.0210575 0.0075227 0
0.03093 0.0102083 0
0.0439002 0.0131685 0
0.057557 0.0161898 0
0.0698863 0.019089 0
0.0811627 0.0220798 0
0.092668 0.0251011 0
0.106249 0.0287633 0
0.121309 0.0329137 0
0.138659 0.0375677 0
0.157549 0.0423896 0
0.180514 0.0476692 0
0.207599 0.0528878 0
0.237964 0.0575875 0
0.274006 0.0627604 0
0.316426 0.0673228 0
0.366827 0.0714427 0
0.422599 0.0747387 0
0.487831 0.0740978 0
0.559289 0.0694285 0
0.637476 0.0625315 0
0.711849 0.0620127 0
0.786007 0.0764172 0
0.855024 0.105257 0
0.908537 0.1906 0.11249
0.942748 0.28867 0.220172
0.967834 0.378408 0.316091
0.985763 0.457191 0.405707
0.998581 0.527565 0.485603
1 0.591089 0.55697
1 0.645136 0.616907
1 0.691112 0.667445
1 0.732464 0.712703
1 0.765713 0.748852
1 0.795499 0.78117
1 0.820661 0.808347
1 0.842206 0.831525
1 0.860883 0.851545
1 0.876844 0.868589
1 0.890761 0.883406
1 0.902785 0.896178
1 0.914214 0.908278
1 0.923873 0.918486
1 0.932448 0.927504
1 0.939803 0.935225
1 0.946181 0.941878
1 0.952026 0.947753
1 0.957427 0.952972
1 0.961685 0.957061
1 0.965591 0.960784
1 0.968505 0.963485
1 0.971054 0.965789
1 0.97322 0.967712
1 0.975097 0.969284
1 0.976608 0.970459
1 0.978103 0.971572
0 0 0
0 0 0
0 0 0
0.000427253 0.00102235 0
0.00320439 0.0037995 0
0.00753796 0.00666819 0
0.014023 0.010071 0
0.021622 0.0132601 0
0.0304417 0.0163729 0
0.04065 0.0194095 0
0.0508888 0.022385 0
0.0621958 0.0255741 0
0.0729839 0.0286259 0
0.0827649 0.0316014 0
0.0929274 0.0349279 0
0.104372 0.0386053 0
0.117144 0.0427405 0
0.131273 0.0465705 0
0.148257 0.0508278 0
0.167468 0.0555734 0
0.189456 0.0603494 0
0.215595 0.0654917 0
0.247379 0.0706951 0
0.282506 0.075639 0
0.326146 0.0805219 0
0.374182 0.0843061 0
0.430152 0.0850996 0
0.495155 0.0832532 0
0.565881 0.0781109 0
0.641184 0.0712596 0
0.715206 0.0716259 0
0.787732 0.085008 0
0.855909 0.113191 0
0.9093 0.197223 0.115419
0.942443 0.290837 0.219913
0.967788 0.380743 0.316945
0.985504 0.458244 0.405585
0.998398 0.528405 0.48571
1 0.590661 0.555932
1 0.644678 0.615961
1 0.691127 0.667201
1 0.731472 0.711421
1 0.765728 0.74876
1 0.795163 0.780728
1 0.820645 0.80827
1 0.84184 0.831083
1 0.860578 0.851179
1 0.876585 0.868284
1 0.890547 0.883162
1 0.902632 0.895994
1 0.914092 0.908141
1 0.923751 0.918349
1 0.932387 0.927443
1 0.939727 0.935134
1 0.946136 0.941833
1 0.951949 0.947662
1 0.957382 0.952926
1 0.961639 0.957
1 0.965576 0.960754
1 0.968475 0.963439
1 0.971054 0.965774
1 0.973205 0.967681
1 0.975082 0.969253
1 0.976593 0.970428
1 0.978088 0.971557
0 0.00210575 0.000488289
9.15541e-05 0.00517281 0
0.00265507 0.00909438 0
0.00631724 0.0128786 0
0.0119478 0.0167544 0
0.0187228 0.0203861 0
0.0271 0.0240024 0
0.0358892 0.0272374 0
0.0459144 0.030396 0
0.0549325 0.0331579 0
0.0644388 0.0361486 0
0.074464 0.0394598 0
0.084184 0.0425879 0
0.0930648 0.045716 0
0.102632 0.0488594 0
0.112993 0.0519722 0
0.125551 0.0556191 0
0.139605 0.059617 0
0.156008 0.0637369 0
0.174731 0.0681773 0
0.197375 0.0729381 0
0.223957 0.07776 0
0.253956 0.082948 0
0.28986 0.0877852 0
0.331395 0.0912947 0
0.380957 0.0932479 0
0.435615 0.0934768 0
0.499168 0.0909895 0
0.571267 0.0846418 0
0.644724 0.0793011 0
0.718746 0.0796368 0
0.788617 0.0932479 0
0.858717 0.120668 0
0.908934 0.200946 0.114717
0.942763 0.295323 0.221881
0.967712 0.383032 0.317769
0.985092 0.458335 0.404517
0.998154 0.528893 0.485405
1 0.590494 0.555138
1 0.643595 0.614328
1 0.6907 0.666438
1 0.730892 0.710582
1 0.765393 0.748257
1 0.794736 0.780148
1 0.820233 0.807736
1 0.841566 0.830732
1 0.860288 0.850828
1 0.876341 0.867994
1 0.890349 0.882918
1 0.902495 0.895842
1 0.913985 0.908019
1 0.923644 0.918227
1 0.932311 0.927337
1 0.939666 0.935042
1 0.946059 0.941741
1 0.951858 0.947585
1 0.957321 0.952865
1 0.961593 0.956954
1 0.96553 0.960693
1 0.968429 0.963394
1 0.971038 0.965759
1 0.97319 0.967651
1 0.975052 0.969223
1 0.976577 0.970413
1 0.978088 0.971557
0 0.0158541 0.000701915
0.00260929 0.0201419 0
0.00729381 0.0244602 0
0.0129244 0.0283665 0
0.0200198 0.0322423 0
0.0284123 0.0356909 0
0.0375067 0.0391852 0
0.0473487 0.0425116 0
0.057023 0.045655 0
0.0660258 0.0485084 0
0.0752117 0.0512398 0
0.0843366 0.0540932 0
0.0925154 0.0566873 0
0.100801 0.0590677 0
0.10988 0.0619669 0
0.120531 0.0648966 0
0.132647 0.0682383 0
0.146487 0.0717327 0
0.162554 0.0757916 0
0.181552 0.0802319 0
0.204089 0.0849012 0
0.229053 0.0893111 0
0.260014 0.0931868 0
0.295262 0.0967117 0
0.335912 0.0993515 0
0.384451 0.100725 0
0.440894 0.0997787 0
0.504036 0.0966964 0
0.573053 0.0917067 0
0.648753 0.0861067 0
0.720302 0.0878004 0
0.790616 0.101091 0
0.859617 0.127657 0
0.909606 0.206806 0.117342
0.942199 0.297063 0.220829
0.96759 0.385168 0.318379
0.984802 0.459098 0.404181
0.998001 0.52961 0.485496
1 0.590387 0.554391
1 0.643549 0.613855
1 0.690288 0.66566
1 0.730266 0.709697
1 0.765011 0.747677
1 0.794369 0.779644
1 0.819821 0.807218
1 0.84123 0.83032
1 0.859785 0.850248
1 0.876127 0.86775
1 0.890089 0.882643
1 0.902373 0.895705
1 0.913863 0.907866
1 0.923552 0.91812
1 0.932204 0.92723
1 0.939574 0.934966
1 0.945968 0.941634
1 0.951782 0.947494
1 0.957259 0.952804
1 0.961547 0.956909
1 0.965469 0.960647
1 0.968399 0.963348
1 0.971023 0.965743
1 0.973159 0.967636
1 0.975036 0.969207
1 0.976547 0.970382
1 0.978073 0.971542
0 0.033341 0.000137331
0.00509651 0.0371099 0
0.0106966 0.041001 0
0.018677 0.0449378 0
0.0271458 0.0484474 0
0.0372473 0.0517739 0
0.0469368 0.0547646 0
0.0568246 0.0575875 0
0.0658885 0.0603037 0
0.0748608 0.062501 0
0.08336 0.0648051 0
0.0918288 0.0672007 0
0.0993515 0.0694285 0
0.107469 0.0718395 0
0.116396 0.0744488 0
0.126406 0.0772564 0
0.138079 0.080415 0
0.152255 0.0837873 0
0.168276 0.0870527 0
0.186221 0.0905165 0
0.208164 0.0941482 0
0.233433 0.0977035 0
0.262867 0.10103 0
0.298665 0.103883 0
0.339284 0.105669 0
0.3888 0.10634 0
0.443503 0.105623 0
0.506508 0.102739 0
0.576883 0.0973983 0
0.649821 0.0934157 0
0.720592 0.0956588 0
0.791775 0.108217 0
0.86041 0.134783 0
0.908812 0.209476 0.115328
0.942428 0.301244 0.222538
0.966842 0.385092 0.316289
0.98468 0.460807 0.404883
0.997726 0.529885 0.484932
1 0.590265 0.553643
1 0.643442 0.613321
1 0.689494 0.6645
1 0.730251 0.709499
1 0.764035 0.746471
1 0.794339 0.779522
1 0.819165 0.806439
1 0.841062 0.830091
1 0.859358 0.849744
1 0.875914 0.867491
1 0.889784 0.882292
1 0.902235 0.895521
1 0.913664 0.907652
1 0.923476 0.918029
1 0.932128 0.927138
1 0.939498 0.934874
1 0.945861 0.941512
1 0.951705 0.947417
1 0.957198 0.952728
1 0.961501 0.956863
1 0.965423 0.960586
1 0.968353 0.963317
1 0.971008 0.965728
1 0.973144 0.967605
1 0.975006 0.969177
1 0.976532 0.970367
1 0.978073 0.971527
0.000518807 0.0508125 0
0.00726329 0.054551 0
0.0144808 0.0578012 0
0.0233921 0.060853 0
0.0337224 0.0638132 0
0.0443275 0.0663005 0
0.0541848 0.0687572 0
0.0642252 0.0711223 0
0.0731518 0.0733654 0
0.0823529 0.0755322 0
0.0903182 0.0775311 0
0.0978561 0.0793469 0
0.104555 0.0810101 0
0.112154 0.0830854 0
0.121111 0.0852064 0
0.131121 0.0875563 0
0.142702 0.0900893 0
0.15584 0.0927291 0
0.171466 0.095491 0
0.189624 0.098497 0
0.211063 0.101579 0
0.236454 0.104387 0
0.266438 0.107118 0
0.301518 0.109468 0
0.342473 0.111208 0
0.390402 0.111925 0
0.445914 0.111025 0
0.50959 0.108034 0
0.579232 0.103548 0
0.650828 0.100282 0
0.722332 0.102632 0
0.792645 0.115343 0
0.860288 0.140276 0
0.908385 0.213107 0.114504
0.941955 0.302968 0.221729
0.966644 0.387091 0.31664
0.984237 0.461143 0.403861
0.99736 0.529717 0.483848
1 0.590036 0.552804
1 0.642756 0.612085
1 0.689235 0.663905
1 0.729686 0.708629
1 0.763256 0.745464
1 0.793927 0.778958
1 0.818677 0.805844
1 0.841001 0.829969
1 0.859052 0.849378
1 0.875731 0.867262
1 0.889525 0.881987
1 0.902083 0.895354
1 0.913497 0.907454
1 0.923369 0.917906
1 0.932006 0.927001
1 0.939422 0.934783
1 0.945769 0.941405
1 0.951644 0.947341
1 0.957107 0.952651
1 0.961456 0.956817
1 0.965377 0.96054
1 0.968322 0.963272
1 0.970993 0.965713
1 0.973114 0.967575
1 0.97499 0.969146
1 0.976516 0.970352
1 0.978058 0.971527
0.00129702 0.0657206 0
0.00950637 0.0685588 0
0.018143 0.0710613 0
0.0281071 0.0736248 0
0.0393835 0.0759747 0
0.049958 0.0781415 0
0.060441 0.0803082 0
0.0700847 0.0822156 0
0.0791333 0.0839551 0
0.0876936 0.0856947 0
0.09514 0.0872206 0
0.101869 0.0887465 0
0.108629 0.0901656 0
0.115984 0.0918593 0
0.124819 0.0936294 0
0.134356 0.0954452 0
0.145785 0.0973831 0
0.158862 0.0996719 0
0.174365 0.102159 0
0.192523 0.104738 0
0.213504 0.107317 0
0.238758 0.110033 0
0.268864 0.112612 0
0.30367 0.11487 0
0.345174 0.116411 0
0.392279 0.116976 0
0.448524 0.116182 0
0.511452 0.11371 0
0.580713 0.109651 0
0.651881 0.106371 0
0.723445 0.109407 0
0.79266 0.121798 0
0.859709 0.146685 0
0.908278 0.217426 0.114702
0.94197 0.306477 0.222705
0.966308 0.388556 0.316396
0.983734 0.461219 0.402518
0.997192 0.530632 0.484031
1 0.589776 0.551797
1 0.642161 0.610925
1 0.689052 0.663401
1 0.729107 0.707759
1 0.762921 0.744945
1 0.793439 0.778317
1 0.818265 0.80531
1 0.840696 0.829602
1 0.858747 0.849012
1 0.8757 0.867201
1 0.889326 0.881743
1 0.901946 0.895186
1 0.913314 0.907256
1 0.923278 0.917784
1 0.931884 0.926863
1 0.939361 0.934707
1 0.945663 0.941299
1 0.951568 0.94728
1 0.957031 0.95256
1 0.96141 0.956756
1 0.965331 0.960494
1 0.968277 0.963226
1 0.970962 0.965682
1 0.973083 0.967544
1 0.97496 0.969116
1 0.976501 0.970321
1 0.978058 0.971511
0.00300603 0.0776226 0
0.0116579 0.0798962 0
0.0225376 0.0820935 0
0.033341 0.0840162 0
0.0453803 0.085893 0
0.055848 0.0877089 0
0.0660716 0.0895552 0
0.0756847 0.0912642 0
0.0851148 0.0928969 0
0.0929122 0.094377 0
0.0996567 0.0955367 0
0.105699 0.0967727 0
0.112169 0.0979629 0
0.11931 0.0993362 0
0.127642 0.100877 0
0.137667 0.102617 0
0.148684 0.104494 0
0.16199 0.10663 0
0.176623 0.108675 0
0.194659 0.11107 0
0.216266 0.113558 0
0.24126 0.115892 0
0.271366 0.118288 0
0.305425 0.120531 0
0.346868 0.122026 0
0.394598 0.122683 0
0.449622 0.122194 0
0.513161 0.119631 0
0.582116 0.115938 0
0.652659 0.113848 0
0.726162 0.116793 0
0.792706 0.129137 0
0.859022 0.153109 0
0.908095 0.221958 0.114763
0.941482 0.309377 0.222217
0.965545 0.389013 0.314519
0.983612 0.463035 0.40325
0.996674 0.529763 0.482033
1 0.589532 0.550698
1 0.641566 0.609751
1 0.688441 0.662333
1 0.728405 0.706706
1 0.762829 0.744671
1 0.792905 0.77763
1 0.817807 0.804715
1 0.84033 0.829114
1 0.858473 0.848676
1 0.875456 0.866896
1 0.889097 0.881483
1 0.901884 0.895109
1 0.913146 0.907073
1 0.923217 0.917708
1 0.931746 0.926711
1 0.939284 0.93463
1 0.945571 0.941176
1 0.951492 0.947188
1 0.956939 0.952453
1 0.961349 0.956695
1 0.96527 0.960433
1 0.968231 0.96318
1 0.970932 0.965652
1 0.973053 0.967514
1 0.974945 0.969085
1 0.976471 0.970291
1 0.978042 0.971496
0.0059968 0.0883955 0
0.0157778 0.0902724 0
0.0270695 0.092195 0
0.0396124 0.0939803 0
0.0514992 0.0957504 0
0.0624247 0.0973831 0
0.0727855 0.0990158 0
0.0822461 0.100526 0
0.0906844 0.101671 0
0.0977035 0.102861 0
0.103838 0.103944 0
0.109331 0.104952 0
0.115846 0.106142 0
0.122805 0.107362 0
0.131106 0.108827 0
0.140688 0.110231 0
0.151736 0.11191 0
0.164324 0.113771 0
0.17969 0.115923 0
0.197711 0.118105 0
0.218433 0.120348 0
0.243732 0.122728 0
0.273686 0.125002 0
0.306935 0.126909 0
0.349676 0.128298 0
0.396872 0.129015 0
0.45214 0.128527 0
0.513054 0.126711 0
0.583124 0.123369 0
0.654429 0.12134 0
0.725551 0.124926 0
0.792905 0.137636 0
0.860288 0.160998 0
0.908034 0.227863 0.115373
0.940902 0.311955 0.221424
0.964858 0.390509 0.313329
0.982925 0.463188 0.401465
0.996139 0.529671 0.480552
1 0.590158 0.550622
1 0.64126 0.608789
1 0.687709 0.661082
1 0.727535 0.705455
1 0.762341 0.743923
1 0.791882 0.776364
1 0.817533 0.804334
1 0.839857 0.82855
1 0.858228 0.848356
1 0.87512 0.866499
1 0.888838 0.881178
1 0.901884 0.895094
1 0.912978 0.906874
1 0.923232 0.917723
1 0.931609 0.926558
1 0.939193 0.934524
1 0.94548 0.941085
1 0.9514 0.947097
1 0.956817 0.952346
1 0.961288 0.956619
1 0.965225 0.960372
1 0.9682 0.963134
1 0.970901 0.965621
1 0.973007 0.967468
1 0.974914 0.969055
1 0.976455 0.97026
1 0.978027 0.971466
0.00888075 0.099794 0
0.0212406 0.101534 0
0.0335851 0.103304 0
0.0465858 0.104662 0
0.0579843 0.106249 0
0.068925 0.107698 0
0.0790723 0.109239 0
0.0886397 0.110475 0
0.0958572 0.11162 0
0.10222 0.112566 0
0.107424 0.113481 0
0.112856 0.11429 0
0.118761 0.115114 0
0.125978 0.116213 0
0.133944 0.117388 0
0.143771 0.11873 0
0.154772 0.120195 0
0.167758 0.122026 0
0.182132 0.12369 0
0.200656 0.12575 0
0.221164 0.127886 0
0.246418 0.130144 0
0.275883 0.132128 0
0.309529 0.134173 0
0.352071 0.135729 0
0.39794 0.136553 0
0.453544 0.136049 0
0.515221 0.134066 0
0.583886 0.131487 0
0.654902 0.130343 0
0.725017 0.134264 0
0.791943 0.145861 0
0.858946 0.168948 0
0.90695 0.232151 0.112703
0.939925 0.314824 0.219669
0.964218 0.392294 0.312428
0.982483 0.464714 0.40116
0.995682 0.530358 0.479774
1 0.588449 0.547539
1 0.640925 0.607599
1 0.686625 0.659342
1 0.727016 0.704509
1 0.761639 0.742885
1 0.79118 0.775402
1 0.816938 0.803571
1 0.838956 0.827466
1 0.857816 0.847837
1 0.874723 0.866041
1 0.888609 0.880888
1 0.901701 0.894865
1 0.91281 0.906661
1 0.923156 0.917632
1 0.931502 0.926421
1 0.939101 0.934417
1 0.945388 0.940978
