Assets/materials/shaders/textures/satur_lut.cube
TITLE "Generated by Resolve"
LUT_3D_SIZE 5
0 0 0
0.0331884 0.00227359 0.0104829
0.994339 0.11928 0.167758
0.999985 0.823438 0.778927
1 0.998596 0.998169
0.00128176 0.108171 0.0518654
0.185809 0.19678 0.00563058
0.976776 0.110155 0.0995193
0.999985 0.811246 0.763851
1 0.998596 0.998169
0.00148013 0.786435 0.269947
0.0350958 0.799939 0.204944
0.762203 0.786633 0.0189822
0.999924 0.759655 0.695781
1 0.998596 0.998154
0.857633 0.999847 0.837659
0.858717 0.999847 0.838331
0.86952 0.999924 0.845106
0.98233 0.99649 0.852811
1 0.998611 0.998138
0.999329 1 0.999161
0.999329 1 0.999161
0.999329 1 0.999161
0.999344 1 0.999191
0.999939 1 0.999649
0.000747692 0.00813306 0.0460517
0.118441 0.00830091 0.134096
0.99704 0.153338 0.226047
0.999985 0.818296 0.772656
1 0.998596 0.998169
9.15541e-05 0.201755 0.202869
0.207034 0.209918 0.211292
0.969894 0.116197 0.160952
0.999985 0.805936 0.757412
1 0.998596 0.998169
0.00328069 0.782132 0.284596
0.0350805 0.795407 0.224826
0.757137 0.778531 0.0458534
0.999924 0.755901 0.691341
1 0.998581 0.998154
0.857664 0.999847 0.837766
0.858732 0.999847 0.838437
0.869368 0.999924 0.844999
0.982284 0.996338 0.852262
1 0.998611 0.998138
0.999329 1 0.999161
0.999329 1 0.999161
0.999329 1 0.999161
0.999344 1 0.999191
0.999939 1 0.999634
0.0581064 0.329717 0.800885
0.191043 0.410071 0.959533
0.919814 0.445274 0.969314
0.999969 0.812696 0.772351
1 0.998596 0.998169
0.200412 0.512596 0.995407
0.229664 0.501595 0.99147
0.889143 0.388342 0.93254
0.999969 0.800061 0.756939
1 0.998596 0.998169
0.389761 0.770733 0.769818
0.432578 0.766583 0.764416
0.741344 0.740261 0.739864
0.999893 0.751659 0.69424
1 0.998581 0.998138
0.862119 0.999924 0.843809
0.862989 0.999924 0.844312
0.873213 0.999985 0.850126
0.982467 0.995224 0.849607
1 0.998596 0.998123
0.999329 1 0.999161
0.999329 1 0.999161
0.999329 1 0.999161
0.999344 1 0.999191
0.999939 1 0.999649
0.993118 0.99646 1
0.992905 0.996338 1
0.991058 0.9953 1
0.998077 0.976837 0.997009
1 0.99852 0.998154
0.990997 0.995361 1
0.990631 0.995163 1
0.988128 0.993759 1
0.997879 0.97322 0.996445
1 0.99852 0.998154
0.9626 0.980499 1
0.961608 0.979934 1
0.954177 0.975509 1
0.995972 0.947051 0.992844
1 0.99852 0.998138
0.920211 0.982849 0.981353
0.920714 0.982788 0.981277
0.925231 0.982086 0.980438
0.97557 0.975555 0.975372
1 0.998566 0.998108
0.999329 1 0.999161
0.999329 1 0.999161
0.999329 1 0.999161
0.999344 1 0.999191
0.999939 1 0.999649
0.99852 0.999222 1
0.99852 0.999222 1
0.998535 0.999222 1
0.998871 0.999237 1
1 0.99942 0.999802
0.99852 0.999222 1
0.99852 0.999222 1
0.998535 0.999222 1
0.998856 0.999237 1
1 0.99942 0.999802
0.998505 0.999222 1
0.998505 0.999222 1
0.99852 0.999222 1
0.998764 0.999237 1
1 0.99942 0.999802
0.998535 0.999252 1
0.998535 0.999252 1
0.998535 0.999252 1
0.998642 0.999252 1
1 0.99942 0.999802
0.999512 1 0.999969
0.999512 1 0.999969
0.999512 1 0.999969
0.999512 1 0.999969
1 1 1
