Assets/materials/shaders/textures/satur_lut.cube
TITLE "Generated by Resolve"
LUT_3D_SIZE 65
0 0 0
0 7.62951e-05 1.5259e-05
0 0.000503548 0.000411994
0 0.00106813 0.000991836
0 0.00166323 0.0016022
0.000228885 0.00218204 0.00221256
0.000686656 0.00259403 0.00273136
0.00169375 0.00280766 0.00314336
0.00280766 0.00292973 0.00349432
0.00459297 0.00276188 0.0037232
0.0062562 0.00260929 0.00393683
0.00856031 0.00244144 0.00433356
0.0111391 0.00227359 0.00479133
0.0145113 0.00215152 0.00555428
0.0190738 0.00204471 0.00666819
0.0253605 0.002121 0.0083772
0.0331884 0.00227359 0.0104829
0.0431067 0.002533 0.013077
0.0591745 0.00303655 0.0168002
0.0815747 0.00370794 0.02121
0.112825 0.00433356 0.0264439
0.155322 0.005066 0.0320287
0.210788 0.00588998 0.0382849
0.282368 0.00666819 0.0455177
0.365072 0.00805676 0.0531014
0.458228 0.0107729 0.0624094
0.557595 0.0148928 0.074052
0.657877 0.0214084 0.087953
0.753872 0.0266728 0.10219
0.839094 0.0220951 0.114534
0.910948 0.0172732 0.124865
0.965957 0.0395819 0.139666
0.994339 0.11928 0.167758
1 0.213855 0.207218
1 0.284611 0.245914
1 0.334142 0.279591
0.999832 0.372503 0.309071
0.99968 0.40798 0.338231
0.999725 0.44152 0.367193
0.999786 0.475578 0.398062
0.999847 0.510857 0.43154
0.999863 0.547341 0.467735
0.999893 0.586694 0.508354
0.999939 0.624765 0.549035
0.999969 0.665385 0.593866
0.999985 0.706294 0.640269
0.999985 0.746395 0.68687
0.999985 0.785519 0.733227
0.999985 0.823438 0.778927
0.999985 0.857939 0.821134
1 0.888731 0.859174
1 0.916014 0.893095
1 0.938125 0.92076
1 0.955993 0.943328
1 0.969879 0.961044
1 0.979706 0.973663
1 0.986481 0.982422
1 0.990936 0.988205
1 0.993835 0.991989
1 0.995666 0.994354
1 0.996841 0.995895
1 0.997543 0.996796
1 0.998062 0.997467
1 0.998367 0.997864
1 0.998596 0.998169
0.000289921 4.57771e-05 0.000198367
0.00030518 0.000320439 0.000610361
0.000320439 0.000854505 0.00117494
0.000381476 0.00148013 0.00184634
0.000640879 0.00202945 0.00248722
0.000991836 0.002533 0.00306706
0.00195315 0.00276188 0.00347906
0.00294499 0.00296025 0.00384527
0.00463874 0.00285344 0.00407416
0.00639353 0.00267033 0.00424201
0.00830091 0.00248722 0.00447089
0.0106661 0.00231937 0.00483711
0.0133059 0.00209049 0.00521859
0.0172122 0.00196841 0.00611887
0.0221408 0.00183108 0.00729381
0.0289616 0.00190738 0.00906386
0.038941 0.00216678 0.0116121
0.0527962 0.002533 0.0148928
0.0719921 0.0030518 0.0189517
0.0988022 0.00395209 0.0233768
0.135378 0.00457771 0.0285191
0.184009 0.00564584 0.0339971
0.245335 0.00642405 0.0402533
0.319341 0.00796521 0.0467384
0.402701 0.00982681 0.0544289
0.494759 0.0132296 0.0642863
0.591577 0.0180209 0.0763714
0.683742 0.0246128 0.0897688
0.76965 0.0275883 0.102861
0.847105 0.0217899 0.114122
0.912337 0.0176089 0.123659
0.965118 0.0382849 0.137575
0.993667 0.114153 0.164569
1 0.208698 0.203845
1 0.279957 0.242451
1 0.330556 0.276539
0.999847 0.369223 0.306203
0.99968 0.404807 0.335332
0.999725 0.438453 0.364294
0.999786 0.473121 0.395636
0.999832 0.50956 0.430182
0.999863 0.545586 0.465858
0.999893 0.584527 0.506004
0.999939 0.623804 0.547936
0.999969 0.664103 0.592386
0.999985 0.704677 0.638361
0.999985 0.74551 0.685786
0.999985 0.784756 0.732311
0.999985 0.822721 0.778042
0.999985 0.857389 0.820432
1 0.888548 0.858946
1 0.91577 0.892775
1 0.937987 0.920592
1 0.95584 0.94313
1 0.969802 0.960937
1 0.979629 0.973556
1 0.986435 0.982361
1 0.990906 0.988159
1 0.993835 0.991974
1 0.995666 0.994354
1 0.996841 0.995895
1 0.997543 0.996796
1 0.998062 0.997467
1 0.998367 0.997864
1 0.998596 0.998169
0.0011902 0.00030518 0.00106813
0.00117494 0.000808728 0.00164797
0.00122072 0.00140383 0.00231937
0.00135805 0.00199893 0.00297551
0.00172427 0.00251774 0.00357061
0.00239567 0.00288396 0.00401312
0.00343328 0.00308232 0.00433356
0.00477607 0.00311284 0.00454719
0.00660716 0.00294499 0.00462348
0.00833143 0.00280766 0.00468452
0.0105745 0.00265507 0.00494392
0.0129549 0.00248722 0.00520333
0.0158999 0.00231937 0.0056611
0.0205234 0.002121 0.0065919
0.0268864 0.00202945 0.00810254
0.0354009 0.00202945 0.0102235
0.0474556 0.00242618 0.0129549
0.0640269 0.00300603 0.0163424
0.0869612 0.00370794 0.0204318
0.117983 0.00448615 0.0249943
0.159335 0.00569162 0.0296788
0.212345 0.00648508 0.0352483
0.276371 0.00827039 0.04065
0.353399 0.00972 0.047364
0.436851 0.0116274 0.0558633
0.525536 0.0150454 0.0657054
0.615396 0.0204776 0.0776379
0.70161 0.0265507 0.0906386
0.779965 0.027985 0.102968
0.849821 0.0220493 0.112902
0.911589 0.0182803 0.12166
0.963485 0.0384985 0.135134
0.99324 0.110658 0.16173
1 0.205554 0.201389
1 0.277104 0.240101
1 0.328542 0.274678
0.999863 0.367697 0.304677
0.99968 0.403311 0.333883
0.99971 0.436606 0.362509
0.999771 0.470802 0.393347
0.999832 0.508019 0.42858
0.999863 0.544289 0.464469
0.999893 0.582971 0.50428
0.999939 0.622827 0.546822
0.999969 0.662821 0.590906
0.999985 0.703349 0.636805
0.999985 0.744579 0.684688
0.999985 0.783993 0.73138
0.999985 0.82237 0.777615
0.999985 0.856809 0.819715
0.999985 0.888258 0.858579
1 0.915434 0.892363
1 0.937789 0.920333
1 0.955718 0.942992
1 0.969711 0.96083
1 0.979553 0.973465
1 0.986404 0.982315
1 0.99089 0.988128
1 0.99382 0.991958
1 0.995666 0.994354
1 0.996841 0.995895
1 0.997543 0.996796
1 0.998062 0.997467
1 0.998367 0.997864
1 0.998596 0.998169
0.00207523 0.00102235 0.00227359
0.00207523 0.0016022 0.00289921
0.00213626 0.00224308 0.00357061
0.00244144 0.00282292 0.0041352
0.00285344 0.00334173 0.00463874
0.00387579 0.00363165 0.00489815
0.00486763 0.00389105 0.00511177
0.00675975 0.00370794 0.00508125
0.00852979 0.00352483 0.00502022
0.0106508 0.00331121 0.00509651
0.0129549 0.00315862 0.00526436
0.0155032 0.00303655 0.00543221
0.0194858 0.00296025 0.00608835
0.0251316 0.00283818 0.00708019
0.0324102 0.00280766 0.00863661
0.0427863 0.00297551 0.0109407
0.0566262 0.00320439 0.0138399
0.0758831 0.0039826 0.0172885
0.102144 0.00520333 0.0211032
0.137011 0.00607309 0.0254063
0.182696 0.00733959 0.0301061
0.238804 0.00906386 0.0349279
0.30602 0.0102998 0.0406043
0.38088 0.0120394 0.0472267
0.463188 0.014847 0.0553597
0.548501 0.0184787 0.0657206
0.633021 0.0232548 0.0777295
0.71104 0.0287327 0.0898604
0.782666 0.0294957 0.101045
0.850385 0.0234836 0.110582
0.910338 0.0195468 0.119142
0.961242 0.0382696 0.132311
0.992706 0.10605 0.158404
1 0.200671 0.198001
1 0.273457 0.237232
1 0.325795 0.272267
0.999878 0.365225 0.302358
0.99968 0.40119 0.331838
0.99971 0.43505 0.360952
0.999771 0.468894 0.39144
0.999832 0.505425 0.42594
0.999847 0.543114 0.463172
0.999893 0.581399 0.502571
0.999939 0.620584 0.544335
0.999969 0.661662 0.589563
0.999985 0.70219 0.635431
0.999985 0.744244 0.68426
0.999985 0.783093 0.730282
0.999985 0.822156 0.77734
0.999985 0.856352 0.81915
0.999985 0.887831 0.85803
1 0.91519 0.892042
1 0.937575 0.920073
1 0.955566 0.942794
1 0.969619 0.960708
1 0.979507 0.973419
1 0.986374 0.982284
1 0.990845 0.988083
1 0.993805 0.991943
1 0.995651 0.994339
1 0.996841 0.99588
1 0.997543 0.996796
1 0.998062 0.997467
1 0.998367 0.997864
1 0.998596 0.998169
0.0027924 0.00205997 0.00354009
0.00280766 0.0027924 0.00419623
0.00296025 0.00347906 0.00476081
0.00328069 0.0041352 0.00523384
0.00402838 0.00457771 0.00547799
0.00502022 0.00495918 0.00561532
0.0065919 0.00508125 0.00556954
0.00851453 0.00505074 0.00538643
0.0105745 0.00497444 0.00526436
0.0130159 0.00482185 0.00531014
0.0154116 0.00466926 0.00531014
0.0185245 0.00450141 0.00560006
0.0232395 0.00418097 0.0061799
0.0298772 0.00395209 0.00738537
0.0386358 0.00424201 0.0089723
0.0505074 0.00471504 0.0111391
0.0666514 0.00535592 0.013901
0.0883345 0.00619516 0.0173037
0.117327 0.00686656 0.0212406
0.155825 0.00891127 0.024979
0.203815 0.0103609 0.0292821
0.263157 0.0119326 0.0342107
0.329641 0.0135958 0.0394293
0.403998 0.0155032 0.0461433
0.484276 0.0170748 0.0550698
0.564157 0.0212253 0.0648508
0.640772 0.026276 0.0758068
0.714366 0.0314183 0.0874342
0.782666 0.031754 0.0982071
0.848341 0.0254368 0.107668
0.908049 0.0209201 0.116228
0.959091 0.0382086 0.129335
0.991638 0.101808 0.154894
1 0.19588 0.194629
1 0.270893 0.235004
1 0.323217 0.269917
0.999893 0.363348 0.300542
0.999695 0.398871 0.32961
0.99971 0.433066 0.358999
0.999771 0.467842 0.390326
0.999832 0.503639 0.424094
0.999847 0.541176 0.461128
0.999878 0.57995 0.500969
0.999939 0.619211 0.542779
0.999969 0.66067 0.588403
0.999985 0.701152 0.634211
0.999985 0.743633 0.683513
0.999985 0.782345 0.729351
0.999985 0.821302 0.776272
0.999985 0.855802 0.818448
0.999985 0.887205 0.857237
1 0.914855 0.89163
1 0.937377 0.919814
1 0.955444 0.942641
1 0.969512 0.960571
1 0.979446 0.973327
1 0.986328 0.982223
1 0.990829 0.988067
1 0.993805 0.991928
1 0.995651 0.994339
1 0.996841 0.99588
1 0.997543 0.996796
1 0.998062 0.997467
1 0.998367 0.997864
1 0.998596 0.998169
0.00294499 0.00395209 0.00480659
0.00297551 0.00460822 0.00534066
0.00334173 0.0052491 0.00576791
0.00387579 0.00584421 0.00610361
0.00492866 0.00627146 0.0061799
0.00607309 0.00675975 0.0061799
0.00802625 0.00689708 0.00587472
0.00991836 0.00709545 0.00556954
0.0124514 0.00712596 0.00544747
0.0149996 0.00709545 0.0053254
0.0177157 0.00706493 0.00527962
0.021622 0.00697337 0.00555428
0.0273442 0.00682078 0.00604257
0.0349737 0.00680552 0.00706493
0.0451972 0.00695811 0.00868238
0.058793 0.007187 0.0108644
0.0768749 0.00801099 0.013611
0.101381 0.00976577 0.0167239
0.133089 0.0112917 0.0200961
0.173205 0.0122683 0.0238651
0.222431 0.0145266 0.0278325
0.281453 0.0163272 0.0321965
0.349126 0.0173342 0.0377508
0.419913 0.0192721 0.0440223
0.496223 0.0218662 0.0526589
0.571084 0.0239872 0.062501
0.644633 0.0289921 0.073167
0.715831 0.0341497 0.0845045
0.782391 0.0342565 0.0951705
0.846769 0.0275425 0.104662
0.906661 0.022446 0.113375
0.957 0.0381628 0.126284
0.990265 0.0991836 0.151598
1 0.193256 0.192142
1 0.266865 0.231815
1 0.320714 0.267643
0.999908 0.36144 0.29865
0.99971 0.397269 0.327993
0.99971 0.431342 0.357275
0.999756 0.466133 0.388586
0.999817 0.502754 0.423133
0.999847 0.539147 0.458991
0.999878 0.579293 0.500221
0.999939 0.617975 0.54139
0.999969 0.660075 0.587701
0.999985 0.700099 0.632975
0.999985 0.742412 0.682063
0.999985 0.781582 0.72842
0.999985 0.820294 0.775036
0.999985 0.855222 0.817731
0.999985 0.886778 0.856718
1 0.91458 0.891295
1 0.93724 0.919646
1 0.955245 0.942382
1 0.969421 0.960449
1 0.9794 0.973266
1 0.986297 0.982193
1 0.990799 0.988022
1 0.99379 0.991913
1 0.995651 0.994339
1 0.996826 0.99588
1 0.997543 0.996796
1 0.998062 0.997467
1 0.998367 0.997864
1 0.998596 0.998169
0.00263981 0.00630198 0.00593576
0.00276188 0.00708019 0.00639353
0.0030518 0.00793469 0.00675975
0.00386053 0.00863661 0.00686656
0.00488289 0.00926223 0.0068513
0.00668345 0.00967422 0.00656138
0.00877394 0.00994888 0.00613413
0.0111391 0.010132 0.00578317
0.0139925 0.0100862 0.00547799
0.016846 0.0100862 0.00515755
0.0201877 0.00994888 0.00515755
0.0250248 0.00968948 0.00521859
0.0318151 0.00978103 0.00576791
0.0405432 0.0102388 0.00663767
0.0518502 0.0108797 0.00794995
0.0668345 0.0117952 0.00982681
0.0865949 0.0130159 0.0123903
0.111971 0.0142977 0.0153048
0.144701 0.0154269 0.0184787
0.187381 0.0180819 0.0218204
0.237797 0.0200351 0.0255436
0.296162 0.0207675 0.0298924
0.360372 0.0231022 0.0345312
0.42916 0.0238193 0.0410315
0.501396 0.0267948 0.0488746
0.574197 0.0295262 0.0585184
0.645853 0.0326238 0.0695964
0.714946 0.0370336 0.0810254
0.781598 0.0370336 0.0919051
0.844846 0.030045 0.101427
0.904341 0.0240635 0.110201
0.954589 0.0379797 0.122896
0.989273 0.0976425 0.148623
0.999939 0.187198 0.1879
1 0.265126 0.229969
1 0.318181 0.265293
0.999908 0.359442 0.296727
0.999725 0.395361 0.326101
0.99971 0.429877 0.355764
0.999756 0.46389 0.386313
0.999817 0.501106 0.421408
0.999847 0.537652 0.457389
0.999878 0.577874 0.49865
0.999924 0.616602 0.539834
0.999969 0.65893 0.586374
0.999969 0.69894 0.631601
0.999985 0.740963 0.680323
0.999985 0.780819 0.727504
0.999985 0.819562 0.774136
0.999985 0.854765 0.817151
0.999985 0.886366 0.856199
1 0.914305 0.890944
1 0.937011 0.919356
1 0.955123 0.942229
1 0.969314 0.960311
1 0.979324 0.973175
1 0.986282 0.982147
1 0.990784 0.987991
1 0.99379 0.991913
1 0.995651 0.994339
1 0.996826 0.995865
1 0.997543 0.996796
1 0.998062 0.997467
1 0.998367 0.997864
1 0.998596 0.998169
0.00202945 0.00894179 0.00698863
0.00227359 0.00976577 0.00732433
0.00262455 0.0107576 0.00769055
0.00373846 0.0115663 0.00764477
0.00488289 0.0123293 0.00758373
0.0071107 0.0128786 0.0071107
0.00918593 0.0134127 0.00665293
0.012192 0.013611 0.0061799
0.0152132 0.0138247 0.00569162
0.0183871 0.0140688 0.00531014
0.0225528 0.0141604 0.00512703
0.0283665 0.014313 0.00491341
0.0360571 0.014725 0.00520333
0.0459144 0.0152132 0.00584421
0.0582742 0.0158999 0.00688182
0.074403 0.0166323 0.00856031
0.0949722 0.0181888 0.0109255
0.122148 0.0208286 0.0135348
0.156161 0.0230259 0.0161746
0.198184 0.0245212 0.0192264
0.247684 0.0265507 0.0225834
0.304204 0.0293278 0.0259251
0.3673 0.0292973 0.0304417
0.434638 0.0321965 0.0364691
0.503838 0.0320745 0.0445869
0.575967 0.0353552 0.0541238
0.645762 0.0385748 0.0650187
0.714199 0.0411231 0.0772259
0.779538 0.0402075 0.0882734
0.843305 0.0329595 0.0980697
0.901915 0.025803 0.106874
0.953231 0.0385748 0.119768
0.987854 0.0946365 0.14493
0.999741 0.184771 0.185077
1 0.261097 0.226688
1 0.316777 0.263798
0.999924 0.357641 0.294942
0.999741 0.393637 0.324392
0.999695 0.428244 0.354101
0.999756 0.463004 0.385351
0.999817 0.499641 0.419867
0.999847 0.536156 0.455787
0.999878 0.576288 0.496925
0.999924 0.615625 0.53872
0.999954 0.657343 0.584558
0.999969 0.697917 0.630381
0.999985 0.740047 0.67924
0.999985 0.780072 0.726589
0.999985 0.81883 0.773236
0.999985 0.8542 0.816449
0.999985 0.885969 0.85568
1 0.913954 0.890486
1 0.936767 0.919051
1 0.955001 0.942077
1 0.969223 0.960189
1 0.979263 0.973083
1 0.986221 0.982086
1 0.990768 0.987976
1 0.993774 0.991897
1 0.995636 0.994324
1 0.996826 0.995865
1 0.997543 0.996796
1 0.998062 0.997467
1 0.998367 0.997864
1 0.998596 0.998169
0.00151064 0.0119936 0.00836194
0.00180056 0.0130922 0.00874342
0.00236515 0.0140383 0.00891127
0.00341802 0.0149844 0.00883497
0.00497444 0.0157931 0.00854505
0.00721752 0.0165255 0.00796521
0.00959792 0.0171206 0.00737011
0.0129549 0.0175174 0.00662242
0.0162051 0.0179599 0.00588998
0.0200809 0.0182193 0.00538643
0.0250858 0.0185245 0.00485237
0.031754 0.0189212 0.00450141
0.0400244 0.0196384 0.00444038
0.0507362 0.0207523 0.00494392
0.064271 0.0223087 0.00582895
0.0814832 0.0244297 0.00721752
0.103182 0.0269932 0.00903334
0.130526 0.0295109 0.0110018
0.164508 0.0311589 0.0131533
0.206043 0.034638 0.0158999
0.255375 0.0378271 0.0186465
0.31043 0.0381781 0.021561
0.370398 0.0406348 0.0256199
0.437156 0.040589 0.0315099
0.505974 0.0420386 0.0396429
0.576913 0.0414282 0.049546
0.64596 0.0448157 0.0605936
0.712734 0.0472267 0.0726635
0.777386 0.0445563 0.0842908
0.841047 0.0363317 0.0944839
0.899931 0.0277562 0.103456
0.95108 0.0385901 0.116228
0.986908 0.0930648 0.141665
0.999466 0.179995 0.180941
1 0.259678 0.224979
1 0.313619 0.260945
0.999939 0.356603 0.293751
0.999756 0.391836 0.322591
0.999695 0.426444 0.352285
0.999741 0.461646 0.383932
0.999802 0.497627 0.417762
0.999847 0.53547 0.454994
0.999878 0.574258 0.494728
0.999924 0.614969 0.537957
0.999954 0.655756 0.582742
0.999969 0.697444 0.629816
0.999985 0.739147 0.678141
0.999985 0.779187 0.725505
0.999985 0.818219 0.772488
0.999985 0.853758 0.8159
0.999985 0.885557 0.855161
1 0.91368 0.89015
1 0.936538 0.918761
1 0.954818 0.941833
1 0.969116 0.960067
1 0.979187 0.972992
1 0.986206 0.982055
1 0.990753 0.987961
1 0.993774 0.991882
1 0.995636 0.994324
1 0.996811 0.995865
1 0.997543 0.996796
1 0.998062 0.997467
1 0.998367 0.997864
1 0.998596 0.998169
0.00108339 0.0151675 0.00973526
0.00134279 0.0164034 0.0101625
0.00204471 0.0175784 0.0102998
0.00303655 0.0187381 0.0102388
0.00491341 0.0198215 0.00981155
0.00698863 0.0208286 0.00921645
0.00987259 0.0217136 0.00843824
0.0134127 0.0225834 0.00747692
0.0167697 0.0233768 0.00657664
0.0215152 0.024094 0.00585946
0.0271611 0.0250248 0.00494392
0.0346838 0.026154 0.00444038
0.0437171 0.0276036 0.00395209
0.0555428 0.0294957 0.00402838
0.0700999 0.031632 0.00450141
0.0880598 0.0340429 0.00540169
0.110857 0.0372931 0.00679026
0.138262 0.0409857 0.00854505
0.172808 0.0443885 0.0105287
0.212909 0.047425 0.0125124
0.260746 0.0492561 0.0145113
0.315847 0.0518959 0.0175479
0.374411 0.052903 0.0208286
0.439597 0.0519875 0.0267338
0.506661 0.0523384 0.0344549
0.576257 0.0514992 0.0445106
0.644785 0.0516518 0.0557565
0.712261 0.0535897 0.0682689
0.775601 0.0505226 0.0799268
0.838666 0.0407416 0.0906233
0.8981 0.0302892 0.0999466
0.950103 0.0394903 0.112978
0.98584 0.0909133 0.138094
0.999313 0.177539 0.17792
1 0.255985 0.221561
1 0.312444 0.259571
0.999954 0.354589 0.291768
0.999771 0.390097 0.320821
0.999695 0.425223 0.351003
0.999741 0.460227 0.382437
0.999802 0.496666 0.416693
0.999847 0.534005 0.453422
0.999863 0.572854 0.493172
0.999924 0.613733 0.536553
0.999954 0.654643 0.581445
0.999969 0.696834 0.629084
0.999985 0.738247 0.677058
0.999985 0.778973 0.725231
0.999985 0.817487 0.771572
0.999985 0.853193 0.815167
0.999985 0.88513 0.854643
1 0.913497 0.889906
1 0.936309 0.918471
1 0.954681 0.941665
1 0.96907 0.959991
1 0.97911 0.972885
1 0.986175 0.982025
1 0.990738 0.98793
1 0.993759 0.991867
1 0.995636 0.994324
1 0.996811 0.995865
1 0.997543 0.996796
1 0.998047 0.997467
1 0.998367 0.997864
1 0.998596 0.998169
0.000808728 0.0200656 0.0121767
0.0009308 0.0213321 0.0125734
0.00166323 0.0226291 0.0125887
0.00248722 0.0239872 0.0125277
0.00453193 0.0252537 0.0117952
0.0065156 0.0265049 0.0110781
0.00999466 0.0277409 0.00987259
0.0135653 0.0288853 0.00860609
0.0176547 0.0299687 0.00746166
0.0233005 0.0312657 0.00631724
0.0293889 0.0326238 0.00515755
0.037705 0.0344854 0.0043946
0.0478218 0.0367132 0.00367742
0.0606699 0.039765 0.00340276
0.0763714 0.0429694 0.00367742
0.0953536 0.0467994 0.00430304
0.118868 0.0507668 0.00534066
0.146334 0.054612 0.0065156
0.180316 0.0580758 0.00779736
0.220386 0.0618296 0.0096437
0.266728 0.0650339 0.0116426
0.319081 0.0663767 0.0136721
0.378012 0.0664988 0.0166171
0.441459 0.0662242 0.0221866
0.507362 0.0631418 0.0293278
0.575265 0.0628367 0.0393378
0.643442 0.0609445 0.0508431
0.710246 0.0605173 0.0634623
0.775036 0.0568856 0.0756542
0.836088 0.0467536 0.0862745
0.895735 0.0343481 0.0962539
0.947799 0.0395361 0.108873
0.984985 0.0894331 0.134432
0.999222 0.175525 0.175006
1 0.254505 0.219516
1 0.310567 0.257603
0.999969 0.352514 0.289708
0.999771 0.389181 0.319799
0.999695 0.423804 0.349523
0.999741 0.458824 0.380941
0.999802 0.495598 0.415534
0.999832 0.53283 0.452125
0.999863 0.571939 0.492149
0.999924 0.612482 0.535149
0.999954 0.653498 0.580118
0.999969 0.695918 0.628016
0.999985 0.737346 0.675975
0.999985 0.778607 0.724788
0.999985 0.816876 0.770825
0.999985 0.852979 0.814908
0.999985 0.884733 0.854124
1 0.913329 0.889693
1 0.93608 0.918166
1 0.954498 0.941421
1 0.968917 0.959808
1 0.979034 0.972793
1 0.98613 0.981949
1 0.990707 0.987915
1 0.993744 0.991867
1 0.995636 0.994324
1 0.996811 0.99585
1 0.997543 0.996796
1 0.998047 0.997467
1 0.998367 0.997864
1 0.998596 0.998169
0.000610361 0.0265354 0.0154879
0.000671397 0.0279545 0.0158846
0.00135805 0.0294499 0.0158236
0.00238041 0.0309148 0.0155337
0.0043183 0.032517 0.014725
0.00656138 0.0340124 0.0137789
0.0102235 0.0357061 0.0123293
0.0137026 0.0371862 0.0108644
0.0189059 0.0387732 0.00936904
0.0249943 0.0407263 0.00769055
0.0322423 0.0427405 0.0062562
0.0413977 0.0455024 0.00495918
0.0526741 0.0486763 0.00393683
0.0669108 0.052781 0.00314336
0.0836957 0.0568551 0.00303655
0.104311 0.0616312 0.00332647
0.127687 0.0664836 0.00402838
0.156374 0.0716564 0.00503548
0.189334 0.0760052 0.00621042
0.228 0.0798199 0.00741588
0.273182 0.0826886 0.00846876
0.324331 0.0842756 0.0103304
0.381064 0.0845655 0.0130922
0.441718 0.0827039 0.0170596
0.508385 0.0800946 0.0247044
0.575097 0.0758526 0.0338293
0.642145 0.0737621 0.0456245
0.708156 0.0693217 0.0580758
0.773022 0.0645151 0.070634
0.834821 0.0538338 0.0814832
0.894667 0.0406043 0.0918441
0.946365 0.0403754 0.104753
0.983963 0.0873274 0.130144
0.999115 0.172076 0.170871
1 0.252216 0.216571
1 0.308354 0.255177
0.999969 0.351537 0.288487
0.999786 0.38674 0.317372
0.999695 0.422293 0.34789
0.999725 0.457313 0.379355
0.999786 0.494148 0.413947
0.999832 0.53109 0.450233
0.999863 0.570947 0.49102
0.999924 0.610559 0.532998
0.999954 0.652232 0.578653
0.999969 0.694789 0.626673
0.999985 0.736309 0.674723
0.999985 0.777737 0.723705
0.999985 0.816052 0.769787
0.999985 0.852781 0.814664
0.999985 0.884321 0.853605
1 0.913252 0.889586
1 0.935851 0.917876
1 0.954437 0.941344
1 0.968826 0.95967
1 0.978912 0.972641
1 0.986099 0.981918
1 0.990677 0.987869
1 0.993744 0.991852
1 0.995636 0.994324
1 0.996811 0.99585
1 0.997543 0.996796
1 0.998047 0.997467
1 0.998367 0.997864
1 0.998596 0.998169
0.000579843 0.0352636 0.0199588
0.000732433 0.0367132 0.0201267
0.00117494 0.0383917 0.0201267
0.002533 0.0401007 0.01944
0.0041352 0.0419471 0.0186465
0.007187 0.0438544 0.0171206
0.0105898 0.0458228 0.0154726
0.0148318 0.0477913 0.0137026
0.0208438 0.0500496 0.0115663
0.0269627 0.0526589 0.00949111
0.035874 0.0559243 0.0078584
0.0454871 0.0594644 0.00607309
0.058793 0.0641642 0.00483711
0.0740368 0.069398 0.00370794
0.0930343 0.0754101 0.00321965
0.114336 0.0809796 0.00318914
0.139452 0.0868391 0.00347906
0.166949 0.0918441 0.00399786
0.2 0.0970626 0.00477607
0.237461 0.101274 0.00575265
0.28101 0.104662 0.00672923
0.330327 0.106386 0.00773632
0.38471 0.105669 0.00932326
0.444129 0.103883 0.0134127
0.508797 0.0998245 0.0194705
0.574411 0.0942245 0.0285496
0.641566 0.0890059 0.0399634
0.706004 0.0839094 0.0522927
0.770901 0.0738842 0.0648508
0.832563 0.0624247 0.0760204
0.892302 0.0481727 0.0867018
0.945022 0.0461433 0.100053
0.983566 0.0870832 0.12607
0.99913 0.170169 0.167102
1 0.249607 0.21323
1 0.306538 0.252705
1 0.349218 0.286061
0.999802 0.385016 0.315511
0.999695 0.421149 0.346593
0.999725 0.455726 0.37763
0.999786 0.4925 0.412161
0.999832 0.529656 0.448631
0.999863 0.56936 0.48925
0.999924 0.608667 0.530877
0.999954 0.651682 0.577981
0.999969 0.692882 0.624445
0.999985 0.735149 0.673335
0.999985 0.77673 0.722484
0.999985 0.81532 0.768887
0.999985 0.852216 0.813947
0.999985 0.883803 0.852949
1 0.912795 0.889006
1 0.935546 0.917479
1 0.954314 0.941176
1 0.968719 0.959548
1 0.978851 0.972549
1 0.986053 0.981857
1 0.990662 0.987839
1 0.993729 0.991836
1 0.995636 0.994324
1 0.996811 0.995834
1 0.997543 0.996796
1 0.998047 0.997467
1 0.998367 0.997864
1 0.998596 0.998169
0.000823987 0.0469368 0.025803
0.000946059 0.0485237 0.0257572
0.00149538 0.0502937 0.0254368
0.00271611 0.0521706 0.024567
0.00466926 0.0542611 0.023331
0.0078584 0.0565042 0.0213931
0.011017 0.0587778 0.0195773
0.0168612 0.0614481 0.0169833
0.0226902 0.0644846 0.0145113
0.0304875 0.0679179 0.012192
0.0397955 0.0720684 0.0100404
0.0506142 0.0766918 0.00790417
0.0653849 0.0827497 0.0061799
0.082475 0.0895552 0.00476081
0.102525 0.0966506 0.00375372
0.126101 0.103807 0.00349432
0.151034 0.11017 0.00358587
0.180163 0.116442 0.00399786
0.211444 0.121614 0.00450141
0.248951 0.126101 0.00494392
0.289387 0.12932 0.00527962
0.336751 0.131426 0.0059205
0.389975 0.131212 0.00720226
0.446433 0.12874 0.00968948
0.510414 0.123629 0.0151827
0.573724 0.117205 0.0233921
0.640284 0.108537 0.0341039
0.704295 0.101091 0.0461128
0.768887 0.0889296 0.0584726
0.830198 0.0729076 0.069749
0.88986 0.057557 0.0806897
0.942443 0.0539559 0.0943618
0.982574 0.0875715 0.120623
0.999222 0.167346 0.162051
1 0.248005 0.209979
1 0.304555 0.249928
1 0.347692 0.284047
0.999817 0.383719 0.313924
0.999695 0.418509 0.343923
0.999725 0.453773 0.375525
0.999771 0.490211 0.409705
0.999817 0.528176 0.446952
0.999863 0.567636 0.487282
0.999908 0.606836 0.528786
0.999954 0.65005 0.576089
0.999969 0.691203 0.622461
0.999985 0.734295 0.672297
0.999985 0.775021 0.720424
0.999985 0.814221 0.767529
0.999985 0.851423 0.812955
0.999985 0.883177 0.852171
1 0.912139 0.888182
1 0.935241 0.917098
