Assets/materials/shaders/textures/satur_lut.cube
TITLE "Generated by Resolve"
LUT_3D_SIZE 9
0 0 0
0.00280766 0.00292973 0.00349432
0.0331884 0.00227359 0.0104829
0.365072 0.00805676 0.0531014
0.994339 0.11928 0.167758
0.999847 0.510857 0.43154
0.999985 0.823438 0.778927
1 0.986481 0.982422
1 0.998596 0.998169
0.00151064 0.0119936 0.00836194
0.0162051 0.0179599 0.00588998
0.103182 0.0269932 0.00903334
0.505974 0.0420386 0.0396429
0.986908 0.0930648 0.141665
0.999802 0.497627 0.417762
0.999985 0.818219 0.772488
1 0.986206 0.982055
1 0.998596 0.998169
0.00128176 0.108171 0.0518654
0.0304265 0.132128 0.0294652
0.185809 0.19678 0.00563058
0.513359 0.216434 0.00802625
0.976776 0.110155 0.0995193
0.999756 0.484977 0.403662
0.999985 0.811246 0.763851
1 0.985794 0.981521
1 0.998596 0.998169
0.00250248 0.436606 0.155581
0.0290074 0.454124 0.115694
0.14522 0.483803 0.0466926
0.497063 0.516564 0.0154726
0.932433 0.400671 0.054551
0.99971 0.47274 0.380301
0.999969 0.791135 0.738827
1 0.984558 0.979904
1 0.998596 0.998169
0.00148013 0.786435 0.269947
0.00939956 0.791485 0.246799
0.0350958 0.799939 0.204944
0.229282 0.819425 0.0702983
0.762203 0.786633 0.0189822
1 0.62388 0.423224
0.999924 0.759655 0.695781
1 0.981109 0.975387
1 0.998596 0.998154
0.437156 1 0.493202
0.444251 1 0.491859
0.453574 1 0.489143
0.495613 1 0.486427
0.628687 1 0.468269
0.927062 0.959838 0.279576
1 0.828244 0.727611
0.999985 0.971893 0.962814
1 0.998566 0.998123
0.857633 0.999847 0.837659
0.858045 0.999847 0.837919
0.858717 0.999847 0.838331
0.861143 0.999863 0.839887
0.86952 0.999924 0.845106
0.900526 1 0.861982
0.98233 0.99649 0.852811
1 0.975784 0.959854
1 0.998611 0.998138
0.970306 0.999969 0.963424
0.970321 0.999969 0.963424
0.970443 0.999969 0.963546
0.97055 0.999969 0.963623
0.971115 0.999969 0.96408
0.973342 0.999969 0.966018
0.981933 1 0.973922
0.997147 0.999725 0.982116
1 0.999374 0.998993
0.999329 1 0.999161
0.999329 1 0.999161
0.999329 1 0.999161
0.999329 1 0.999161
0.999329 1 0.999161
0.999329 1 0.999176
0.999344 1 0.999191
0.99942 1 0.999298
0.999939 1 0.999649
0.0015259 0.00140383 0.00564584
0.00758373 0.00209049 0.0102998
0.0520638 0.00366217 0.0249485
0.424338 0.0129854 0.0961166
0.992813 0.116228 0.170382
0.999832 0.503487 0.424414
0.999985 0.821469 0.776532
1 0.986374 0.982284
1 0.998596 0.998169
0.00062562 0.0188907 0.0200198
0.0310674 0.031754 0.0319982
0.158663 0.0311131 0.0382544
0.523232 0.0393683 0.0746471
0.979706 0.08159 0.143206
0.999802 0.491661 0.412055
0.999985 0.816205 0.770031
1 0.986084 0.981903
1 0.998596 0.998169
0.000823987 0.138048 0.0761425
0.0313115 0.1682 0.0535592
0.194751 0.203632 0.013901
0.522972 0.192554 0.0270085
0.966628 0.101488 0.10692
0.999741 0.478477 0.39762
0.999985 0.808667 0.760723
1 0.985672 0.981369
1 0.998596 0.998169
0.00296025 0.438132 0.168383
0.0249485 0.454765 0.130983
0.127947 0.479759 0.0600137
0.488579 0.502785 0.0236057
0.927184 0.390982 0.067216
0.999725 0.46836 0.376089
0.999969 0.789319 0.736645
1 0.984466 0.979782
1 0.998596 0.998169
0.00169375 0.783215 0.27097
0.00955215 0.788281 0.248768
0.035111 0.795972 0.207248
0.226886 0.814923 0.0738231
0.759884 0.782757 0.0245518
1 0.621851 0.420615
0.999924 0.758053 0.693874
1 0.981018 0.975265
1 0.998596 0.998154
0.431556 1 0.490013
0.438239 1 0.488228
0.450401 1 0.487297
0.491981 1 0.483452
0.626383 1 0.464775
0.926528 0.959121 0.278767
1 0.827344 0.726558
0.999985 0.97174 0.962631
1 0.998566 0.998123
0.857618 0.999847 0.837674
0.858045 0.999847 0.837934
0.858732 0.999847 0.838376
0.861128 0.999863 0.839887
0.869429 0.999924 0.845014
0.900542 1 0.861952
0.9823 0.996445 0.852613
1 0.975692 0.959716
1 0.998611 0.998138
0.970291 0.999969 0.963394
0.970306 0.999969 0.963409
0.970382 0.999969 0.96347
0.970535 0.999969 0.963592
0.971115 0.999969 0.964096
0.973342 0.999969 0.966018
0.981903 1 0.973877
0.997147 0.999725 0.982071
1 0.999374 0.998993
0.999329 1 0.999161
0.999329 1 0.999161
0.999329 1 0.999161
0.999329 1 0.999161
0.999329 1 0.999161
0.999329 1 0.999176
0.999344 1 0.999191
0.99942 1 0.999298
0.999939 1 0.999634
0.000747692 0.00813306 0.0460517
0.0186007 0.00483711 0.0709392
0.118441 0.00830091 0.134096
0.521309 0.0248264 0.280949
0.99704 0.153338 0.226047
0.999832 0.499336 0.421241
0.999985 0.818296 0.772656
1 0.986236 0.982101
1 0.998596 0.998169
0.00177005 0.0657816 0.139116
0.0452583 0.0525673 0.203449
0.229358 0.0377966 0.249302
0.576272 0.0443885 0.262516
0.983948 0.105409 0.19237
0.999786 0.487129 0.408682
0.999985 0.813672 0.766949
1 0.985946 0.981735
1 0.998596 0.998169
9.15541e-05 0.201755 0.202869
0.0240635 0.202487 0.209979
0.207034 0.209918 0.211292
0.57023 0.165423 0.201877
0.969894 0.116197 0.160952
0.999725 0.474525 0.395132
0.999985 0.805936 0.757412
1 0.985534 0.981186
1 0.998596 0.998169
0.000976577 0.454871 0.246143
0.0136263 0.46714 0.222782
0.090959 0.487694 0.165484
0.484016 0.495552 0.112505
0.929961 0.38764 0.124666
0.999725 0.465797 0.37557
0.999969 0.787015 0.733852
1 0.984329 0.979599
1 0.998596 0.998169
0.00328069 0.782132 0.284596
0.0110781 0.787228 0.263783
0.0350805 0.795407 0.224826
0.21796 0.81326 0.0953384
0.757137 0.778531 0.0458534
1 0.620432 0.42005
0.999924 0.755901 0.691341
1 0.980789 0.974975
1 0.998581 0.998154
0.425971 1 0.487251
0.434241 1 0.486259
0.446387 1 0.485084
0.48835 1 0.480903
0.623606 1 0.458656
0.925734 0.958144 0.278706
1 0.826581 0.725765
0.999985 0.971557 0.962371
1 0.998566 0.998123
0.857664 0.999847 0.837766
0.858091 0.999847 0.838026
0.858732 0.999847 0.838437
0.861158 0.999863 0.839963
0.869368 0.999924 0.844999
0.900496 1 0.861967
0.982284 0.996338 0.852262
1 0.975616 0.959594
1 0.998611 0.998138
0.970214 0.999969 0.963302
0.970291 0.999969 0.963378
0.970336 0.999969 0.963409
0.97052 0.999969 0.963577
0.971054 0.999969 0.964004
0.973266 0.999969 0.965942
0.981872 1 0.973846
0.997147 0.99971 0.982055
1 0.999359 0.998993
0.999329 1 0.999161
0.999329 1 0.999161
0.999329 1 0.999161
0.999329 1 0.999161
0.999329 1 0.999161
0.999329 1 0.999176
0.999344 1 0.999191
0.99942 1 0.999298
0.999939 1 0.999634
0.0049897 0.107836 0.305608
0.0437018 0.0691539 0.3738
0.201236 0.0894331 0.54493
0.620722 0.132448 0.662013
0.999985 0.263142 0.530999
0.999802 0.508644 0.448386
0.999985 0.813001 0.766217
1 0.985855 0.981598
1 0.998596 0.998169
0.0184024 0.25304 0.58883
0.0646067 0.254658 0.660761
0.2271 0.244739 0.710765
0.627085 0.171313 0.671229
0.997391 0.219242 0.499748
0.999771 0.496559 0.435431
0.999985 0.808194 0.760296
1 0.985565 0.981216
1 0.998596 0.998169
0.0282597 0.313619 0.598383
0.0653239 0.29633 0.609903
0.207416 0.279026 0.636332
0.581292 0.231983 0.600839
0.981247 0.22031 0.472419
0.999756 0.483253 0.420691
0.999985 0.800793 0.751202
1 0.985061 0.980575
1 0.998596 0.998169
0.018967 0.495155 0.498405
0.0490883 0.495933 0.499763
0.138293 0.498375 0.501503
0.483162 0.484398 0.483955
0.907042 0.446555 0.455192
0.999893 0.473915 0.399771
0.999969 0.781155 0.726802
1 0.983932 0.979095
1 0.998596 0.998169
0.0441749 0.784558 0.422232
0.0611124 0.787686 0.412863
0.0930495 0.79202 0.396567
0.24889 0.801526 0.343679
0.740627 0.769894 0.330144
1 0.624842 0.441627
0.999924 0.750439 0.685191
1 0.980301 0.974334
1 0.998581 0.998154
0.421103 1 0.493431
0.428275 1 0.491493
0.439994 1 0.489784
0.481025 1 0.48397
0.6159 1 0.456321
0.924849 0.955932 0.300389
1 0.824811 0.724422
0.999985 0.970993 0.961639
1 0.998566 0.998123
0.858 0.999847 0.838254
0.858442 0.999847 0.838529
0.859052 0.999847 0.838895
0.861479 0.999863 0.840436
0.869535 0.999939 0.845258
0.900618 1 0.861967
0.982284 0.996063 0.851438
1 0.975311 0.959106
1 0.998596 0.998138
0.970123 0.999969 0.963211
0.970169 0.999969 0.963256
0.970184 0.999969 0.963241
0.970397 0.999969 0.963439
0.970977 0.999969 0.963943
0.973175 0.999969 0.96582
0.981811 1 0.97377
0.997147 0.99971 0.981994
1 0.999359 0.998993
0.999329 1 0.999161
0.999329 1 0.999161
0.999329 1 0.999161
0.999313 1 0.999161
0.999329 1 0.999161
0.999329 1 0.999176
0.999344 1 0.999191
0.99942 1 0.999298
0.999939 1 0.999634
0.0581064 0.329717 0.800885
0.101228 0.365805 0.894209
0.191043 0.410071 0.959533
0.46247 0.516075 0.990723
0.919814 0.445274 0.969314
0.999985 0.573693 0.669688
0.999969 0.812696 0.772351
1 0.984939 0.980407
1 0.998596 0.998169
0.209583 0.514061 0.997391
0.234974 0.522118 0.997833
0.266285 0.525353 0.997116
0.415671 0.531243 0.992752
0.904219 0.410407 0.956176
0.999985 0.562554 0.659831
0.999969 0.807507 0.766064
1 0.984649 0.980026
1 0.998596 0.998169
0.200412 0.512596 0.995407
0.205081 0.506325 0.993912
0.229664 0.501595 0.99147
0.388434 0.500755 0.982467
0.889143 0.388342 0.93254
1 0.549889 0.648371
0.999969 0.800061 0.756939
1 0.984222 0.979492
1 0.998596 0.998169
0.181827 0.53695 0.947463
0.200076 0.534096 0.944564
0.241657 0.533593 0.940124
0.425803 0.538506 0.922576
0.852506 0.47628 0.861234
1 0.54374 0.632013
0.999954 0.781796 0.734737
1 0.983017 0.97792
1 0.998596 0.998154
0.389761 0.770733 0.769818
0.405936 0.769238 0.767514
0.432578 0.766583 0.764416
0.523491 0.75964 0.757229
0.741344 0.740261 0.739864
0.998444 0.690288 0.678691
0.999893 0.751659 0.69424
1 0.979171 0.972869
1 0.998581 0.998138
0.418952 0.998138 0.60856
0.426978 0.997971 0.608225
0.440009 0.99762 0.607156
0.481834 0.99649 0.604349
0.61059 0.989212 0.595834
0.909087 0.944472 0.573693
1 0.825589 0.732448
0.999985 0.96968 0.959915
1 0.99855 0.998108
0.862119 0.999924 0.843809
0.862501 0.999924 0.844022
0.862989 0.999924 0.844312
0.865187 0.999939 0.845502
0.873213 0.999985 0.850126
0.902708 1 0.864256
0.982467 0.995224 0.849607
1 0.974624 0.95816
1 0.998596 0.998123
0.969894 0.999969 0.962951
0.96997 0.999969 0.963043
0.969985 0.999969 0.963027
0.970108 0.999969 0.963119
0.970718 0.999969 0.963638
0.9729 0.999969 0.965515
0.981628 1 0.97351
0.997116 0.999695 0.981735
1 0.999359 0.998978
0.999329 1 0.999161
0.999329 1 0.999161
0.999329 1 0.999161
0.999329 1 0.999161
0.999329 1 0.999161
0.999329 1 0.999176
0.999344 1 0.999191
0.99942 1 0.999298
0.999939 1 0.999649
0.716731 0.841932 1
0.745983 0.858595 1
0.776944 0.876219 1
0.809613 0.893095 1
0.812406 0.875669 1
0.976699 0.781857 0.982086
0.999908 0.849729 0.874586
1 0.984482 0.980316
1 0.998581 0.998154
0.796674 0.888853 1
0.794385 0.887282 1
0.791943 0.885451 1
0.781872 0.877638 1
0.779492 0.854109 1
0.974609 0.76643 0.981231
0.999908 0.845533 0.870726
1 0.984207 0.97995
1 0.998581 0.998154
0.758892 0.867323 1
0.755688 0.865187 1
0.748745 0.860609 1
0.733547 0.849256 1
0.741283 0.827909 1
0.973342 0.747051 0.980148
0.999924 0.839063 0.865187
1 0.983703 0.979324
1 0.998581 0.998138
0.6533 0.805814 1
0.649165 0.802823 1
0.642618 0.797971 1
0.633173 0.787884 1
0.67071 0.773175 1
0.970642 0.705562 0.976333
0.999924 0.823301 0.850843
1 0.982559 0.977844
1 0.998581 0.998138
0.5505 0.759457 0.999634
0.551034 0.758755 0.999573
0.552834 0.757855 0.999435
0.56202 0.754772 0.998947
0.655009 0.758007 0.99559
0.966613 0.7196 0.960922
0.999985 0.798611 0.825223
0.999985 0.978347 0.972412
1 0.998566 0.998123
0.735775 0.925948 0.92282
0.738155 0.925643 0.922469
0.741588 0.925124 0.921981
0.754009 0.923506 0.920302
0.797147 0.918288 0.914916
0.906859 0.906691 0.905989
1 0.867445 0.858671
0.999985 0.968688 0.959503
1 0.99855 0.998093
0.885588 1 0.896498
0.885878 1 0.896513
0.886427 1 0.896574
0.888029 1 0.896712
0.8925 1 0.89633
0.911803 1 0.893874
0.981033 0.991745 0.866743
1 0.973785 0.957824
1 0.998581 0.998108
0.970047 0.999969 0.963394
0.970123 0.999969 0.96347
0.970199 0.999969 0.963531
0.970336 0.999969 0.963623
0.97084 0.999954 0.96405
0.972976 0.999954 0.965881
0.981628 1 0.973617
0.997086 0.999664 0.98114
1 0.999344 0.998962
0.999313 1 0.999161
0.999313 1 0.999161
0.999313 1 0.999161
0.999329 1 0.999161
0.999329 1 0.999161
0.999329 1 0.999176
0.999344 1 0.999191
0.99942 1 0.999283
0.999939 1 0.999649
0.993118 0.99646 1
0.993027 0.996414 1
0.992905 0.996338 1
0.992508 0.996124 1
0.991058 0.9953 1
0.987305 0.992081 1
0.998077 0.976837 0.997009
0.999985 0.989639 0.991379
1 0.99852 0.998154
0.992325 0.996048 1
0.992233 0.995987 1
0.992081 0.995911 1
0.991653 0.995682 1
0.989929 0.994705 1
0.986007 0.991287 1
0.997986 0.975448 0.996765
0.999985 0.989425 0.991196
1 0.99852 0.998154
0.990997 0.995361 1
0.99086 0.995285 1
0.990631 0.995163 1
0.98996 0.994797 1
0.988128 0.993759 1
0.983658 0.989807 1
0.997879 0.97322 0.996445
0.999985 0.989197 0.990982
1 0.99852 0.998154
0.985748 0.99263 1
0.985595 0.992538 1
0.985245 0.992355 1
0.984176 0.991775 1
0.981186 0.990066 1
0.976059 0.985092 1
0.99733 0.96669 0.995743
0.999985 0.988327 0.990188
1 0.99852 0.998138
0.9626 0.980499 1
0.962142 0.98024 1
0.961608 0.979934 1
0.959747 0.978897 1
0.954177 0.975509 1
0.94963 0.96817 1
0.995972 0.947051 0.992844
0.999985 0.985397 0.98761
1 0.99852 0.998138
0.893446 0.946517 1
0.893065 0.946258 1
0.892515 0.945876 1
0.891142 0.944808 1
0.888884 0.942199 1
0.904097 0.938537 0.999969
0.993606 0.922667 0.987076
1 0.977676 0.980224
1 0.998505 0.998093
0.920211 0.982849 0.981353
0.920378 0.982818 0.981338
0.920714 0.982788 0.981277
0.921721 0.98262 0.981094
0.925231 0.982086 0.980438
0.938582 0.980285 0.978546
0.97557 0.975555 0.975372
1 0.979126 0.977096
1 0.998566 0.998108
0.980468 1 0.980285
0.980468 1 0.980285
0.980499 1 0.980301
0.98056 1 0.980331
0.980774 1 0.980392
0.981521 1 0.98056
0.984573 1 0.98056
0.996796 0.9991 0.982757
1 0.999313 0.998932
0.999329 1 0.999161
0.999329 1 0.999161
0.999329 1 0.999161
0.999329 1 0.999161
0.999329 1 0.999161
0.999329 1 0.999176
0.999344 1 0.999191
0.99942 1 0.999298
0.999939 1 0.999649
0.998184 0.999069 1
0.998184 0.999069 1
0.998184 0.999069 1
0.998184 0.999069 1
0.998169 0.999054 1
0.998123 0.998993 1
0.998383 0.99881 1
0.999939 0.998245 0.999725
1 0.998749 0.999084
0.998169 0.999069 1
0.998169 0.999054 1
0.998169 0.999054 1
0.998169 0.999054 1
0.998138 0.999039 1
0.998093 0.998978 1
0.998352 0.99881 1
0.999939 0.998215 0.999725
1 0.998749 0.999084
0.998154 0.999054 1
0.998138 0.999054 1
0.998138 0.999054 1
0.998138 0.999039 1
0.998108 0.999023 1
0.998047 0.998962 1
0.998306 0.998795 1
0.999939 0.998199 0.999725
1 0.998749 0.999069
0.998047 0.998993 1
0.998047 0.998993 1
0.998047 0.998993 1
0.998032 0.998993 1
0.998001 0.998962 1
0.99794 0.998917 1
0.998169 0.998718 1
0.999939 0.998123 0.999725
1 0.998734 0.999069
0.997772 0.998856 1
0.997757 0.998856 1
0.997757 0.998856 1
0.997742 0.99884 1
0.997711 0.998825 1
0.99762 0.998764 1
0.997772 0.998505 1
0.999924 0.997864 0.999695
1 0.998718 0.999039
0.996841 0.998398 1
0.996841 0.998383 1
0.996841 0.998383 1
0.996811 0.998367 1
0.99675 0.998337 1
0.996551 0.998199 1
0.996658 0.997879 1
0.999863 0.99707 0.999588
1 0.998657 0.998962
0.993545 0.996887 1
0.99353 0.996887 1
0.99353 0.996887 1
0.993484 0.996857 1
0.993408 0.996796 1
0.99321 0.996628 1
0.993622 0.996094 1
0.999664 0.995056 0.999191
1 0.998566 0.998795
0.989548 0.99823 0.998077
0.989548 0.99823 0.998077
0.989548 0.99823 0.998077
0.989548 0.998215 0.998077
0.989578 0.998199 0.998047
0.989654 0.998108 0.997955
0.990692 0.997848 0.997696
0.997101 0.997055 0.99704
1 0.999084 0.998978
0.999374 1 0.999222
0.999374 1 0.999222
0.999374 1 0.999222
0.999374 1 0.999222
0.99939 1 0.999222
0.99939 1 0.999237
0.99939 1 0.999252
0.999451 1 0.999329
0.999939 1 0.999649
0.99852 0.999222 1
0.99852 0.999222 1
0.99852 0.999222 1
0.99852 0.999222 1
0.998535 0.999222 1
0.998596 0.999237 1
0.998871 0.999237 1
0.999725 0.999222 1
1 0.99942 0.999802
0.99852 0.999222 1
0.99852 0.999222 1
0.99852 0.999222 1
0.99852 0.999222 1
0.998535 0.999222 1
0.998596 0.999237 1
0.998856 0.999237 1
0.999725 0.999222 1
1 0.99942 0.999802
0.99852 0.999222 1
0.99852 0.999222 1
0.99852 0.999222 1
0.99852 0.999222 1
0.998535 0.999222 1
0.998581 0.999237 1
0.998856 0.999237 1
0.999725 0.999222 1
1 0.99942 0.999802
0.998505 0.999222 1
0.998505 0.999222 1
0.99852 0.999222 1
0.99852 0.999222 1
0.998535 0.999222 1
0.998581 0.999237 1
0.998825 0.999237 1
0.999695 0.999222 1
1 0.99942 0.999802
0.998505 0.999222 1
0.998505 0.999222 1
0.998505 0.999222 1
0.998505 0.999222 1
0.99852 0.999222 1
0.99855 0.999222 1
0.998764 0.999237 1
0.999649 0.999222 1
1 0.99942 0.999802
0.998505 0.999222 1
0.998505 0.999222 1
0.998505 0.999222 1
0.998505 0.999222 1
0.998505 0.999222 1
0.998535 0.999237 1
0.998688 0.999237 1
0.999527 0.999237 1
1 0.99942 0.999802
0.998535 0.999252 1
0.998535 0.999252 1
0.998535 0.999252 1
0.998535 0.999252 1
0.998535 0.999252 1
0.99855 0.999252 1
0.998642 0.999252 1
0.999298 0.999252 1
1 0.99942 0.999802
0.998718 0.999435 1
0.998718 0.999435 1
0.998718 0.999435 1
0.998718 0.999435 1
0.998718 0.999435 1
0.998734 0.999435 1
0.998779 0.999435 1
0.999161 0.99942 1
1 0.999481 0.999847
0.999512 1 0.999969
0.999512 1 0.999969
0.999512 1 0.999969
0.999512 1 0.999969
0.999512 1 0.999969
0.999512 1 0.999969
0.999512 1 0.999969
0.999527 1 0.999969
1 1 1
